(1001)
(Machine)
(  vendor: Autodesk)
(  description: Generic 3-axis)
(T2  D=3. CR=0. - ZMIN=-23.4 - flat end mill)
G90
G53 G0 Z0.

(2D Pocket1)
T2 M6 (flat end mill D=3. 3mm Flat Endmill)
S12000 M3
G64
G54
G43 H2
G0 X-1.295 Y0.995
Z15.
Z5.
G1 Z2.8 F1206
X-1.321 Y0.968 Z2.653
X-1.39 Y0.887 Z2.544
X-1.475 Y0.769 Z2.5
G3 X-1.044 Y-1.2 Z2.422 I1.2 J-0.769
X0.925 Y-0.769 Z2.344 I0.769 J1.2
X0.494 Y1.2 Z2.266 I-1.2 J0.769
X-1.475 Y0.769 Z2.187 I-0.769 J-1.2
X-1.044 Y-1.2 Z2.109 I1.2 J-0.769
X0.925 Y-0.769 Z2.031 I0.769 J1.2
X0.494 Y1.2 Z1.953 I-1.2 J0.769
X-1.475 Y0.769 Z1.875 I-0.769 J-1.2
X-1.044 Y-1.2 Z1.797 I1.2 J-0.769
X0.925 Y-0.769 Z1.718 I0.769 J1.2
X0.494 Y1.2 Z1.64 I-1.2 J0.769
X-1.475 Y0.769 Z1.562 I-0.769 J-1.2
X-1.044 Y-1.2 Z1.484 I1.2 J-0.769
X0.925 Y-0.769 Z1.406 I0.769 J1.2
X0.494 Y1.2 Z1.328 I-1.2 J0.769
X-1.475 Y0.769 Z1.249 I-0.769 J-1.2
X-1.044 Y-1.2 Z1.171 I1.2 J-0.769
X0.925 Y-0.769 Z1.093 I0.769 J1.2
X0.494 Y1.2 Z1.015 I-1.2 J0.769
X-1.475 Y0.769 Z0.937 I-0.769 J-1.2
X-1.044 Y-1.2 Z0.859 I1.2 J-0.769
X0.925 Y-0.769 Z0.78 I0.769 J1.2
X0.494 Y1.2 Z0.702 I-1.2 J0.769
X-1.475 Y0.769 Z0.624 I-0.769 J-1.2
X-1.044 Y-1.2 Z0.546 I1.2 J-0.769
X0.925 Y-0.769 Z0.468 I0.769 J1.2
X0.494 Y1.2 Z0.39 I-1.2 J0.769
X-1.475 Y0.769 Z0.311 I-0.769 J-1.2
X-1.044 Y-1.2 Z0.233 I1.2 J-0.769
X0.925 Y-0.769 Z0.155 I0.769 J1.2
X0.494 Y1.2 Z0.077 I-1.2 J0.769
X-1.475 Y0.769 Z-0.001 I-0.769 J-1.2
X-1.044 Y-1.2 Z-0.079 I1.2 J-0.769
X0.925 Y-0.769 Z-0.158 I0.769 J1.2
X0.494 Y1.2 Z-0.236 I-1.2 J0.769
X-1.475 Y0.769 Z-0.314 I-0.769 J-1.2
X-1.044 Y-1.2 Z-0.392 I1.2 J-0.769
X0.925 Y-0.769 Z-0.47 I0.769 J1.2
X0.494 Y1.2 Z-0.548 I-1.2 J0.769
X-1.475 Y0.769 Z-0.627 I-0.769 J-1.2
X-1.044 Y-1.2 Z-0.705 I1.2 J-0.769
X0.925 Y-0.769 Z-0.783 I0.769 J1.2
X0.494 Y1.2 Z-0.861 I-1.2 J0.769
X-1.475 Y0.769 Z-0.939 I-0.769 J-1.2
X-1.044 Y-1.2 Z-1.017 I1.2 J-0.769
X0.925 Y-0.769 Z-1.096 I0.769 J1.2
X0.494 Y1.2 Z-1.174 I-1.2 J0.769
X-1.475 Y0.769 Z-1.252 I-0.769 J-1.2
X-1.044 Y-1.2 Z-1.33 I1.2 J-0.769
X0.925 Y-0.769 Z-1.408 I0.769 J1.2
X0.494 Y1.2 Z-1.486 I-1.2 J0.769
X-1.475 Y0.769 Z-1.565 I-0.769 J-1.2
X-1.044 Y-1.2 Z-1.643 I1.2 J-0.769
X0.925 Y-0.769 Z-1.721 I0.769 J1.2
X0.494 Y1.2 Z-1.799 I-1.2 J0.769
X-1.475 Y0.769 Z-1.877 I-0.769 J-1.2
X-1.044 Y-1.2 Z-1.955 I1.2 J-0.769
X0.925 Y-0.769 Z-2.034 I0.769 J1.2
X0.494 Y1.2 Z-2.112 I-1.2 J0.769
X-1.475 Y0.769 Z-2.19 I-0.769 J-1.2
X-1.044 Y-1.2 Z-2.268 I1.2 J-0.769
X0.925 Y-0.769 Z-2.346 I0.769 J1.2
X0.494 Y1.2 Z-2.424 I-1.2 J0.769
X-1.475 Y0.769 Z-2.503 I-0.769 J-1.2
X-1.044 Y-1.2 Z-2.581 I1.2 J-0.769
X0.925 Y-0.769 Z-2.659 I0.769 J1.2
X0.494 Y1.2 Z-2.737 I-1.2 J0.769
X-1.475 Y0.769 Z-2.815 I-0.769 J-1.2
X-1.044 Y-1.2 Z-2.893 I1.2 J-0.769
X0.925 Y-0.769 Z-2.972 I0.769 J1.2
X1.15 Y0. Z-3. I-1.2 J0.769
X0. Y1.15 I-1.15 J0.
X-1.15 Y0. I0. J-1.15
X1.425 Y-2.575 I2.575 J0.
X4. Y0. I0. J2.575
X0. Y4. I-4. J0.
X-4. Y0. I0. J-4.
X1.425 Y-5.425 I5.425 J0.
X6.85 Y0. I0. J5.425
X0. Y6.85 I-6.85 J0.
X-6.85 Y0. I0. J-6.85
X1.425 Y-8.275 I8.275 J0.
X9.7 Y0. I0. J8.275
X0. Y9.7 I-9.7 J0.
X-9.7 Y0. I0. J-9.7
X1.425 Y-11.125 I11.125 J0.
X12.55 Y0. I0. J11.125
X0. Y12.55 I-12.55 J0.
X-12.55 Y0. I0. J-12.55
X1.425 Y-13.975 I13.975 J0.
X15.4 Y0. I0. J13.975
X0. Y15.4 I-15.4 J0.
X-15.4 Y0. I0. J-15.4
X1.425 Y-16.825 I16.825 J0.
X18.25 Y0. I0. J16.825
X0. Y18.25 I-18.25 J0.
X-18.25 Y0. I0. J-18.25
X0. Y-18.25 I18.25 J0.
X18.25 Y0. I0. J18.25
G1 X18.244 Y0.042
X18.227 Y0.08
X18.2 Y0.112
X18.164 Y0.135
X18.124 Y0.148
X18.082 Y0.149
X7.948 Y-1.062
X7.918 Y-1.065
X7.887 Y-1.062
X-1.299 Y0.863
X-1.343 Y0.866
X-1.386 Y0.855
X-1.424 Y0.833
X-1.454 Y0.801
G3 X-1.076 Y-1.179 Z-3.078 I1.179 J-0.801
X0.904 Y-0.801 Z-3.156 I0.801 J1.179
X0.526 Y1.179 Z-3.234 I-1.179 J0.801
X-1.454 Y0.801 Z-3.313 I-0.801 J-1.179
X-1.076 Y-1.179 Z-3.391 I1.179 J-0.801
X0.904 Y-0.801 Z-3.469 I0.801 J1.179
X0.526 Y1.179 Z-3.547 I-1.179 J0.801
X-1.454 Y0.801 Z-3.625 I-0.801 J-1.179
X-1.076 Y-1.179 Z-3.703 I1.179 J-0.801
X0.904 Y-0.801 Z-3.782 I0.801 J1.179
X0.526 Y1.179 Z-3.86 I-1.179 J0.801
X-1.454 Y0.801 Z-3.938 I-0.801 J-1.179
X-1.076 Y-1.179 Z-4.016 I1.179 J-0.801
X0.904 Y-0.801 Z-4.094 I0.801 J1.179
X0.526 Y1.179 Z-4.172 I-1.179 J0.801
X-1.454 Y0.801 Z-4.251 I-0.801 J-1.179
X-1.076 Y-1.179 Z-4.329 I1.179 J-0.801
X0.904 Y-0.801 Z-4.407 I0.801 J1.179
X0.526 Y1.179 Z-4.485 I-1.179 J0.801
X-1.454 Y0.801 Z-4.563 I-0.801 J-1.179
X-1.076 Y-1.179 Z-4.641 I1.179 J-0.801
X0.904 Y-0.801 Z-4.72 I0.801 J1.179
X0.526 Y1.179 Z-4.798 I-1.179 J0.801
X-1.454 Y0.801 Z-4.876 I-0.801 J-1.179
X-1.076 Y-1.179 Z-4.954 I1.179 J-0.801
X0.904 Y-0.801 Z-5.032 I0.801 J1.179
X0.526 Y1.179 Z-5.11 I-1.179 J0.801
X-1.454 Y0.801 Z-5.189 I-0.801 J-1.179
X-1.076 Y-1.179 Z-5.267 I1.179 J-0.801
X0.904 Y-0.801 Z-5.345 I0.801 J1.179
X0.526 Y1.179 Z-5.423 I-1.179 J0.801
X-1.454 Y0.801 Z-5.501 I-0.801 J-1.179
X-1.076 Y-1.179 Z-5.579 I1.179 J-0.801
X0.904 Y-0.801 Z-5.658 I0.801 J1.179
X0.526 Y1.179 Z-5.736 I-1.179 J0.801
X-1.454 Y0.801 Z-5.814 I-0.801 J-1.179
X-1.076 Y-1.179 Z-5.892 I1.179 J-0.801
X0.904 Y-0.801 Z-5.97 I0.801 J1.179
X1.15 Y0. Z-6. I-1.179 J0.801
X0. Y1.15 I-1.15 J0.
X-1.15 Y0. I0. J-1.15
X1.425 Y-2.575 I2.575 J0.
X4. Y0. I0. J2.575
X0. Y4. I-4. J0.
X-4. Y0. I0. J-4.
X1.425 Y-5.425 I5.425 J0.
X6.85 Y0. I0. J5.425
X0. Y6.85 I-6.85 J0.
X-6.85 Y0. I0. J-6.85
X1.425 Y-8.275 I8.275 J0.
X9.7 Y0. I0. J8.275
X0. Y9.7 I-9.7 J0.
X-9.7 Y0. I0. J-9.7
X1.425 Y-11.125 I11.125 J0.
X12.55 Y0. I0. J11.125
X0. Y12.55 I-12.55 J0.
X-12.55 Y0. I0. J-12.55
X1.425 Y-13.975 I13.975 J0.
X15.4 Y0. I0. J13.975
X0. Y15.4 I-15.4 J0.
X-15.4 Y0. I0. J-15.4
X1.425 Y-16.825 I16.825 J0.
X18.25 Y0. I0. J16.825
X0. Y18.25 I-18.25 J0.
X-18.25 Y0. I0. J-18.25
X0. Y-18.25 I18.25 J0.
X18.25 Y0. I0. J18.25
G1 X18.244 Y0.042
X18.227 Y0.08
X18.2 Y0.112
X18.164 Y0.135
X18.124 Y0.148
X18.082 Y0.149
X7.948 Y-1.062
X7.918 Y-1.065
X7.887 Y-1.062
X-1.299 Y0.863
X-1.343 Y0.866
X-1.386 Y0.855
X-1.424 Y0.833
X-1.454 Y0.801
G3 X-1.076 Y-1.179 Z-6.078 I1.179 J-0.801
X0.904 Y-0.801 Z-6.156 I0.801 J1.179
X0.526 Y1.179 Z-6.234 I-1.179 J0.801
X-1.454 Y0.801 Z-6.313 I-0.801 J-1.179
X-1.076 Y-1.179 Z-6.391 I1.179 J-0.801
X0.904 Y-0.801 Z-6.469 I0.801 J1.179
X0.526 Y1.179 Z-6.547 I-1.179 J0.801
X-1.454 Y0.801 Z-6.625 I-0.801 J-1.179
X-1.076 Y-1.179 Z-6.703 I1.179 J-0.801
X0.904 Y-0.801 Z-6.782 I0.801 J1.179
X0.526 Y1.179 Z-6.86 I-1.179 J0.801
X-1.454 Y0.801 Z-6.938 I-0.801 J-1.179
X-1.076 Y-1.179 Z-7.016 I1.179 J-0.801
X0.904 Y-0.801 Z-7.094 I0.801 J1.179
X0.526 Y1.179 Z-7.172 I-1.179 J0.801
X-1.454 Y0.801 Z-7.251 I-0.801 J-1.179
X-1.076 Y-1.179 Z-7.329 I1.179 J-0.801
X0.904 Y-0.801 Z-7.407 I0.801 J1.179
X0.526 Y1.179 Z-7.485 I-1.179 J0.801
X-1.454 Y0.801 Z-7.563 I-0.801 J-1.179
X-1.076 Y-1.179 Z-7.641 I1.179 J-0.801
X0.904 Y-0.801 Z-7.72 I0.801 J1.179
X0.526 Y1.179 Z-7.798 I-1.179 J0.801
X-1.454 Y0.801 Z-7.876 I-0.801 J-1.179
X-1.076 Y-1.179 Z-7.954 I1.179 J-0.801
X0.904 Y-0.801 Z-8.032 I0.801 J1.179
X0.526 Y1.179 Z-8.11 I-1.179 J0.801
X-1.454 Y0.801 Z-8.189 I-0.801 J-1.179
X-1.076 Y-1.179 Z-8.267 I1.179 J-0.801
X0.904 Y-0.801 Z-8.345 I0.801 J1.179
X0.526 Y1.179 Z-8.423 I-1.179 J0.801
X-1.454 Y0.801 Z-8.501 I-0.801 J-1.179
X-1.076 Y-1.179 Z-8.579 I1.179 J-0.801
X0.904 Y-0.801 Z-8.658 I0.801 J1.179
X0.526 Y1.179 Z-8.736 I-1.179 J0.801
X-1.454 Y0.801 Z-8.814 I-0.801 J-1.179
X-1.076 Y-1.179 Z-8.892 I1.179 J-0.801
X0.904 Y-0.801 Z-8.97 I0.801 J1.179
X1.15 Y0. Z-9. I-1.179 J0.801
X0. Y1.15 I-1.15 J0.
X-1.15 Y0. I0. J-1.15
X1.425 Y-2.575 I2.575 J0.
X4. Y0. I0. J2.575
X0. Y4. I-4. J0.
X-4. Y0. I0. J-4.
X1.425 Y-5.425 I5.425 J0.
X6.85 Y0. I0. J5.425
X0. Y6.85 I-6.85 J0.
X-6.85 Y0. I0. J-6.85
X1.425 Y-8.275 I8.275 J0.
X9.7 Y0. I0. J8.275
X0. Y9.7 I-9.7 J0.
X-9.7 Y0. I0. J-9.7
X1.425 Y-11.125 I11.125 J0.
X12.55 Y0. I0. J11.125
X0. Y12.55 I-12.55 J0.
X-12.55 Y0. I0. J-12.55
X1.425 Y-13.975 I13.975 J0.
X15.4 Y0. I0. J13.975
X0. Y15.4 I-15.4 J0.
X-15.4 Y0. I0. J-15.4
X1.425 Y-16.825 I16.825 J0.
X18.25 Y0. I0. J16.825
X0. Y18.25 I-18.25 J0.
X-18.25 Y0. I0. J-18.25
X0. Y-18.25 I18.25 J0.
X18.25 Y0. I0. J18.25
G1 X18.244 Y0.042
X18.227 Y0.08
X18.2 Y0.112
X18.164 Y0.135
X18.124 Y0.148
X18.082 Y0.149
X7.948 Y-1.062
X7.918 Y-1.065
X7.887 Y-1.062
X-1.299 Y0.863
X-1.343 Y0.866
X-1.386 Y0.855
X-1.424 Y0.833
X-1.454 Y0.801
G3 X-1.076 Y-1.179 Z-9.078 I1.179 J-0.801
X0.904 Y-0.801 Z-9.156 I0.801 J1.179
X0.526 Y1.179 Z-9.234 I-1.179 J0.801
X-1.454 Y0.801 Z-9.313 I-0.801 J-1.179
X-1.076 Y-1.179 Z-9.391 I1.179 J-0.801
X0.904 Y-0.801 Z-9.469 I0.801 J1.179
X0.526 Y1.179 Z-9.547 I-1.179 J0.801
X-1.454 Y0.801 Z-9.625 I-0.801 J-1.179
X-1.076 Y-1.179 Z-9.703 I1.179 J-0.801
X0.904 Y-0.801 Z-9.782 I0.801 J1.179
X0.526 Y1.179 Z-9.86 I-1.179 J0.801
X-1.454 Y0.801 Z-9.938 I-0.801 J-1.179
X-1.076 Y-1.179 Z-10.016 I1.179 J-0.801
X0.904 Y-0.801 Z-10.094 I0.801 J1.179
X0.526 Y1.179 Z-10.172 I-1.179 J0.801
X-1.454 Y0.801 Z-10.251 I-0.801 J-1.179
X-1.076 Y-1.179 Z-10.329 I1.179 J-0.801
X0.904 Y-0.801 Z-10.407 I0.801 J1.179
X0.526 Y1.179 Z-10.485 I-1.179 J0.801
X-1.454 Y0.801 Z-10.563 I-0.801 J-1.179
X-1.076 Y-1.179 Z-10.641 I1.179 J-0.801
X0.904 Y-0.801 Z-10.72 I0.801 J1.179
X0.526 Y1.179 Z-10.798 I-1.179 J0.801
X-1.454 Y0.801 Z-10.876 I-0.801 J-1.179
X-1.076 Y-1.179 Z-10.954 I1.179 J-0.801
X0.904 Y-0.801 Z-11.032 I0.801 J1.179
X0.526 Y1.179 Z-11.11 I-1.179 J0.801
X-1.454 Y0.801 Z-11.189 I-0.801 J-1.179
X-1.076 Y-1.179 Z-11.267 I1.179 J-0.801
X0.904 Y-0.801 Z-11.345 I0.801 J1.179
X0.526 Y1.179 Z-11.423 I-1.179 J0.801
X-1.454 Y0.801 Z-11.501 I-0.801 J-1.179
X-1.076 Y-1.179 Z-11.579 I1.179 J-0.801
X0.904 Y-0.801 Z-11.658 I0.801 J1.179
X0.526 Y1.179 Z-11.736 I-1.179 J0.801
X-1.454 Y0.801 Z-11.814 I-0.801 J-1.179
X-1.076 Y-1.179 Z-11.892 I1.179 J-0.801
X0.904 Y-0.801 Z-11.97 I0.801 J1.179
X1.15 Y0. Z-12. I-1.179 J0.801
X0. Y1.15 I-1.15 J0.
X-1.15 Y0. I0. J-1.15
X1.425 Y-2.575 I2.575 J0.
X4. Y0. I0. J2.575
X0. Y4. I-4. J0.
X-4. Y0. I0. J-4.
X1.425 Y-5.425 I5.425 J0.
X6.85 Y0. I0. J5.425
X0. Y6.85 I-6.85 J0.
X-6.85 Y0. I0. J-6.85
X1.425 Y-8.275 I8.275 J0.
X9.7 Y0. I0. J8.275
X0. Y9.7 I-9.7 J0.
X-9.7 Y0. I0. J-9.7
X1.425 Y-11.125 I11.125 J0.
X12.55 Y0. I0. J11.125
X0. Y12.55 I-12.55 J0.
X-12.55 Y0. I0. J-12.55
X1.425 Y-13.975 I13.975 J0.
X15.4 Y0. I0. J13.975
X0. Y15.4 I-15.4 J0.
X-15.4 Y0. I0. J-15.4
X1.425 Y-16.825 I16.825 J0.
X18.25 Y0. I0. J16.825
X0. Y18.25 I-18.25 J0.
X-18.25 Y0. I0. J-18.25
X0. Y-18.25 I18.25 J0.
X18.25 Y0. I0. J18.25
G1 X18.244 Y0.042
X18.227 Y0.08
X18.2 Y0.112
X18.164 Y0.135
X18.124 Y0.148
X18.082 Y0.149
X7.948 Y-1.062
X7.918 Y-1.065
X7.887 Y-1.062
X-1.299 Y0.863
X-1.343 Y0.866
X-1.386 Y0.855
X-1.424 Y0.833
X-1.454 Y0.801
G3 X-1.076 Y-1.179 Z-12.078 I1.179 J-0.801
X0.904 Y-0.801 Z-12.156 I0.801 J1.179
X0.526 Y1.179 Z-12.234 I-1.179 J0.801
X-1.454 Y0.801 Z-12.313 I-0.801 J-1.179
X-1.076 Y-1.179 Z-12.391 I1.179 J-0.801
X0.904 Y-0.801 Z-12.469 I0.801 J1.179
X0.526 Y1.179 Z-12.547 I-1.179 J0.801
X-1.454 Y0.801 Z-12.625 I-0.801 J-1.179
X-1.076 Y-1.179 Z-12.703 I1.179 J-0.801
X0.904 Y-0.801 Z-12.782 I0.801 J1.179
X0.526 Y1.179 Z-12.86 I-1.179 J0.801
X-1.454 Y0.801 Z-12.938 I-0.801 J-1.179
X-1.076 Y-1.179 Z-13.016 I1.179 J-0.801
X0.904 Y-0.801 Z-13.094 I0.801 J1.179
X0.526 Y1.179 Z-13.172 I-1.179 J0.801
X-1.454 Y0.801 Z-13.251 I-0.801 J-1.179
X-1.076 Y-1.179 Z-13.329 I1.179 J-0.801
X0.904 Y-0.801 Z-13.407 I0.801 J1.179
X0.526 Y1.179 Z-13.485 I-1.179 J0.801
X-1.454 Y0.801 Z-13.563 I-0.801 J-1.179
X-1.076 Y-1.179 Z-13.641 I1.179 J-0.801
X0.904 Y-0.801 Z-13.72 I0.801 J1.179
X0.526 Y1.179 Z-13.798 I-1.179 J0.801
X-1.454 Y0.801 Z-13.876 I-0.801 J-1.179
X-1.076 Y-1.179 Z-13.954 I1.179 J-0.801
X0.904 Y-0.801 Z-14.032 I0.801 J1.179
X0.526 Y1.179 Z-14.11 I-1.179 J0.801
X-1.454 Y0.801 Z-14.189 I-0.801 J-1.179
X-1.076 Y-1.179 Z-14.267 I1.179 J-0.801
X0.904 Y-0.801 Z-14.345 I0.801 J1.179
X0.526 Y1.179 Z-14.423 I-1.179 J0.801
X-1.454 Y0.801 Z-14.501 I-0.801 J-1.179
X-1.076 Y-1.179 Z-14.579 I1.179 J-0.801
X0.904 Y-0.801 Z-14.658 I0.801 J1.179
X0.526 Y1.179 Z-14.736 I-1.179 J0.801
X-1.454 Y0.801 Z-14.814 I-0.801 J-1.179
X-1.076 Y-1.179 Z-14.892 I1.179 J-0.801
X0.904 Y-0.801 Z-14.97 I0.801 J1.179
X1.15 Y0. Z-15. I-1.179 J0.801
X0. Y1.15 I-1.15 J0.
X-1.15 Y0. I0. J-1.15
X1.425 Y-2.575 I2.575 J0.
X4. Y0. I0. J2.575
X0. Y4. I-4. J0.
X-4. Y0. I0. J-4.
X1.425 Y-5.425 I5.425 J0.
X6.85 Y0. I0. J5.425
X0. Y6.85 I-6.85 J0.
X-6.85 Y0. I0. J-6.85
X1.425 Y-8.275 I8.275 J0.
X9.7 Y0. I0. J8.275
X0. Y9.7 I-9.7 J0.
X-9.7 Y0. I0. J-9.7
X1.425 Y-11.125 I11.125 J0.
X12.55 Y0. I0. J11.125
X0. Y12.55 I-12.55 J0.
X-12.55 Y0. I0. J-12.55
X1.425 Y-13.975 I13.975 J0.
X15.4 Y0. I0. J13.975
X0. Y15.4 I-15.4 J0.
X-15.4 Y0. I0. J-15.4
X1.425 Y-16.825 I16.825 J0.
X18.25 Y0. I0. J16.825
X0. Y18.25 I-18.25 J0.
X-18.25 Y0. I0. J-18.25
X0. Y-18.25 I18.25 J0.
X18.25 Y0. I0. J18.25
G1 X18.244 Y0.042
X18.227 Y0.08
X18.199 Y0.112
X18.164 Y0.136
X18.124 Y0.148
X18.082 Y0.149
X7.933 Y-1.085
X7.902 Y-1.089
X7.871 Y-1.085
X-1.289 Y0.877
X-1.332 Y0.88
X-1.375 Y0.87
X-1.413 Y0.848
X-1.443 Y0.816
G3 X-1.091 Y-1.168 Z-15.078 I1.168 J-0.816
X0.893 Y-0.816 Z-15.156 I0.816 J1.168
X0.541 Y1.168 Z-15.234 I-1.168 J0.816
X-1.443 Y0.816 Z-15.313 I-0.816 J-1.168
X-1.091 Y-1.168 Z-15.391 I1.168 J-0.816
X0.893 Y-0.816 Z-15.469 I0.816 J1.168
X0.541 Y1.168 Z-15.547 I-1.168 J0.816
X-1.443 Y0.816 Z-15.625 I-0.816 J-1.168
X-1.091 Y-1.168 Z-15.703 I1.168 J-0.816
X0.893 Y-0.816 Z-15.782 I0.816 J1.168
X0.541 Y1.168 Z-15.86 I-1.168 J0.816
X-1.443 Y0.816 Z-15.938 I-0.816 J-1.168
X-1.091 Y-1.168 Z-16.016 I1.168 J-0.816
X0.893 Y-0.816 Z-16.094 I0.816 J1.168
X0.541 Y1.168 Z-16.172 I-1.168 J0.816
X-1.443 Y0.816 Z-16.251 I-0.816 J-1.168
X-1.091 Y-1.168 Z-16.329 I1.168 J-0.816
X0.893 Y-0.816 Z-16.407 I0.816 J1.168
X0.541 Y1.168 Z-16.485 I-1.168 J0.816
X-1.443 Y0.816 Z-16.563 I-0.816 J-1.168
X-1.091 Y-1.168 Z-16.641 I1.168 J-0.816
X0.893 Y-0.816 Z-16.72 I0.816 J1.168
X1.15 Y0. Z-16.75 I-1.168 J0.816
X0. Y1.15 I-1.15 J0.
X-1.15 Y0. I0. J-1.15
X1.425 Y-2.575 I2.575 J0.
X4. Y0. I0. J2.575
X0. Y4. I-4. J0.
X-4. Y0. I0. J-4.
X1.425 Y-5.425 I5.425 J0.
X6.85 Y0. I0. J5.425
X0. Y6.85 I-6.85 J0.
X-6.85 Y0. I0. J-6.85
X1.425 Y-8.275 I8.275 J0.
X9.7 Y0. I0. J8.275
X0. Y9.7 I-9.7 J0.
X-9.7 Y0. I0. J-9.7
X1.425 Y-11.125 I11.125 J0.
X12.55 Y0. I0. J11.125
X0. Y12.55 I-12.55 J0.
X-12.55 Y0. I0. J-12.55
X1.425 Y-13.975 I13.975 J0.
X15.4 Y0. I0. J13.975
X0. Y15.4 I-15.4 J0.
X-15.4 Y0. I0. J-15.4
X1.425 Y-16.825 I16.825 J0.
X18.25 Y0. I0. J16.825
X0. Y18.25 I-18.25 J0.
X-18.25 Y0. I0. J-18.25
X0. Y-18.25 I18.25 J0.
X18.25 Y0. I0. J18.25
G1 X18.244 Y0.042
X18.227 Y0.08
X18.199 Y0.112
X18.164 Y0.136
X18.124 Y0.148
X18.082 Y0.149
X7.933 Y-1.085
X7.902 Y-1.089
X7.871 Y-1.085
X-1.289 Y0.877
X-1.332 Y0.88
X-1.375 Y0.87
X-1.413 Y0.848
X-1.443 Y0.816
G3 X-1.091 Y-1.168 Z-16.828 I1.168 J-0.816
X0.893 Y-0.816 Z-16.906 I0.816 J1.168
X0.541 Y1.168 Z-16.984 I-1.168 J0.816
X-1.443 Y0.816 Z-17.063 I-0.816 J-1.168
X-1.091 Y-1.168 Z-17.141 I1.168 J-0.816
X0.893 Y-0.816 Z-17.219 I0.816 J1.168
X0.541 Y1.168 Z-17.297 I-1.168 J0.816
X-1.443 Y0.816 Z-17.375 I-0.816 J-1.168
X-1.091 Y-1.168 Z-17.453 I1.168 J-0.816
X0.893 Y-0.816 Z-17.532 I0.816 J1.168
X0.541 Y1.168 Z-17.61 I-1.168 J0.816
X-1.443 Y0.816 Z-17.688 I-0.816 J-1.168
X-1.091 Y-1.168 Z-17.766 I1.168 J-0.816
X0.893 Y-0.816 Z-17.844 I0.816 J1.168
X0.541 Y1.168 Z-17.922 I-1.168 J0.816
X-1.443 Y0.816 Z-18.001 I-0.816 J-1.168
X-1.091 Y-1.168 Z-18.079 I1.168 J-0.816
X0.893 Y-0.816 Z-18.157 I0.816 J1.168
X0.541 Y1.168 Z-18.235 I-1.168 J0.816
X-1.443 Y0.816 Z-18.313 I-0.816 J-1.168
X-1.091 Y-1.168 Z-18.391 I1.168 J-0.816
X0.893 Y-0.816 Z-18.47 I0.816 J1.168
X1.15 Y0. Z-18.5 I-1.168 J0.816
X0. Y1.15 I-1.15 J0.
X-1.15 Y0. I0. J-1.15
X1.425 Y-2.575 I2.575 J0.
X4. Y0. I0. J2.575
X0. Y4. I-4. J0.
X-4. Y0. I0. J-4.
X1.425 Y-5.425 I5.425 J0.
X6.85 Y0. I0. J5.425
X0. Y6.85 I-6.85 J0.
X-6.85 Y0. I0. J-6.85
X1.425 Y-8.275 I8.275 J0.
X9.7 Y0. I0. J8.275
X0. Y9.7 I-9.7 J0.
X-9.7 Y0. I0. J-9.7
X1.425 Y-11.125 I11.125 J0.
X12.55 Y0. I0. J11.125
X0. Y12.55 I-12.55 J0.
X-12.55 Y0. I0. J-12.55
X1.425 Y-13.975 I13.975 J0.
X15.4 Y0. I0. J13.975
X0. Y15.4 I-15.4 J0.
X-15.4 Y0. I0. J-15.4
X1.425 Y-16.825 I16.825 J0.
X18.25 Y0. I0. J16.825
X0. Y18.25 I-18.25 J0.
X-18.25 Y0. I0. J-18.25
X0. Y-18.25 I18.25 J0.
X18.25 Y0. I0. J18.25
G1 X18.245 Y0.057 Z-18.489
X18.228 Y0.112 Z-18.477
X18.207 Y0.155 Z-18.445
X18.178 Y0.195 Z-18.412
X18.131 Y0.239 Z-18.315
X18.112 Y0.252 Z-18.2
G0 Z15.

(Adaptive4)
G64
X-1.199 Y0.769
Z15.
Z5.
Z2.5
G3 X-0.769 Y-1.199 Z2.422 I1.2 J-0.769 F1206
X1.2 Y-0.769 Z2.344 I0.769 J1.2
X0.77 Y1.2 Z2.266 I-1.2 J0.769
X-1.199 Y0.769 Z2.187 I-0.769 J-1.2
X-0.769 Y-1.199 Z2.109 I1.2 J-0.769
X1.2 Y-0.769 Z2.031 I0.769 J1.2
X0.77 Y1.2 Z1.953 I-1.2 J0.769
X-1.199 Y0.769 Z1.875 I-0.769 J-1.2
X-0.769 Y-1.199 Z1.797 I1.2 J-0.769
X1.2 Y-0.769 Z1.718 I0.769 J1.2
X0.77 Y1.2 Z1.64 I-1.2 J0.769
X-1.199 Y0.769 Z1.562 I-0.769 J-1.2
X-0.769 Y-1.199 Z1.484 I1.2 J-0.769
X1.2 Y-0.769 Z1.406 I0.769 J1.2
X0.77 Y1.2 Z1.328 I-1.2 J0.769
X-1.199 Y0.769 Z1.249 I-0.769 J-1.2
X-0.769 Y-1.199 Z1.171 I1.2 J-0.769
X1.2 Y-0.769 Z1.093 I0.769 J1.2
X0.77 Y1.2 Z1.015 I-1.2 J0.769
X-1.199 Y0.769 Z0.937 I-0.769 J-1.2
X-0.769 Y-1.199 Z0.859 I1.2 J-0.769
X1.2 Y-0.769 Z0.78 I0.769 J1.2
X0.77 Y1.2 Z0.702 I-1.2 J0.769
X-1.199 Y0.769 Z0.624 I-0.769 J-1.2
X-0.769 Y-1.199 Z0.546 I1.2 J-0.769
X1.2 Y-0.769 Z0.468 I0.769 J1.2
X0.77 Y1.2 Z0.39 I-1.2 J0.769
X-1.199 Y0.769 Z0.311 I-0.769 J-1.2
X-0.769 Y-1.199 Z0.233 I1.2 J-0.769
X1.2 Y-0.769 Z0.155 I0.769 J1.2
X0.77 Y1.2 Z0.077 I-1.2 J0.769
X-1.199 Y0.769 Z-0.001 I-0.769 J-1.2
X-0.769 Y-1.199 Z-0.079 I1.2 J-0.769
X1.2 Y-0.769 Z-0.158 I0.769 J1.2
X0.77 Y1.2 Z-0.236 I-1.2 J0.769
X-1.199 Y0.769 Z-0.314 I-0.769 J-1.2
X-0.769 Y-1.199 Z-0.392 I1.2 J-0.769
X1.2 Y-0.769 Z-0.47 I0.769 J1.2
X0.77 Y1.2 Z-0.548 I-1.2 J0.769
X-1.199 Y0.769 Z-0.627 I-0.769 J-1.2
X-0.769 Y-1.199 Z-0.705 I1.2 J-0.769
X1.2 Y-0.769 Z-0.783 I0.769 J1.2
X0.77 Y1.2 Z-0.861 I-1.2 J0.769
X-1.199 Y0.769 Z-0.939 I-0.769 J-1.2
X-0.769 Y-1.199 Z-1.017 I1.2 J-0.769
X1.2 Y-0.769 Z-1.096 I0.769 J1.2
X0.77 Y1.2 Z-1.174 I-1.2 J0.769
X-1.199 Y0.769 Z-1.252 I-0.769 J-1.2
X-0.769 Y-1.199 Z-1.33 I1.2 J-0.769
X1.2 Y-0.769 Z-1.408 I0.769 J1.2
X0.77 Y1.2 Z-1.486 I-1.2 J0.769
X-1.199 Y0.769 Z-1.565 I-0.769 J-1.2
X-0.769 Y-1.199 Z-1.643 I1.2 J-0.769
X1.2 Y-0.769 Z-1.721 I0.769 J1.2
X0.77 Y1.2 Z-1.799 I-1.2 J0.769
X-1.199 Y0.769 Z-1.877 I-0.769 J-1.2
X-0.769 Y-1.199 Z-1.955 I1.2 J-0.769
X1.2 Y-0.769 Z-2.034 I0.769 J1.2
X0.77 Y1.2 Z-2.112 I-1.2 J0.769
X-1.199 Y0.769 Z-2.19 I-0.769 J-1.2
X-0.769 Y-1.199 Z-2.268 I1.2 J-0.769
X1.2 Y-0.769 Z-2.346 I0.769 J1.2
X0.77 Y1.2 Z-2.424 I-1.2 J0.769
X-1.199 Y0.769 Z-2.503 I-0.769 J-1.2
X-0.769 Y-1.199 Z-2.581 I1.2 J-0.769
X1.2 Y-0.769 Z-2.659 I0.769 J1.2
X0.77 Y1.2 Z-2.737 I-1.2 J0.769
X-1.199 Y0.769 Z-2.815 I-0.769 J-1.2
X-0.769 Y-1.199 Z-2.893 I1.2 J-0.769
X1.2 Y-0.769 Z-2.972 I0.769 J1.2
X1.426 Y0. Z-3. I-1.2 J0.769
X0.001 Y1.425 I-1.425 J0.
X-1.424 Y0. I0. J-1.425
X0.001 Y-1.425 I1.425 J0.
X1.426 Y0. I0. J1.425
G1 X1.429 Y0.078
X1.74 Y0.619
X1.818 Y0.747
X1.873 Y0.887
X1.909 Y1.044
X1.924 Y1.22
X1.912 Y1.414
X1.869 Y1.622
X1.79 Y1.838
X1.672 Y2.056
X1.513 Y2.271
X1.311 Y2.474
X1.066 Y2.657
X0.782 Y2.813
X0.46 Y2.932
X0.108 Y3.007
X-0.267 Y3.032
X-0.656 Y3.002
X-1.049 Y2.913
X-1.435 Y2.765
X-1.803 Y2.558
X-2.145 Y2.296
X-2.449 Y1.983
X-2.708 Y1.625
X-2.914 Y1.231
X-3.063 Y0.807
X-3.15 Y0.365
X-3.173 Y-0.087
X-3.13 Y-0.539
X-3.022 Y-0.982
X-2.851 Y-1.405
X-2.621 Y-1.799
X-2.336 Y-2.157
X-2.003 Y-2.471
X-1.627 Y-2.733
X-1.218 Y-2.939
X-0.783 Y-3.084
X-0.332 Y-3.164
X0.127 Y-3.179
X0.582 Y-3.128
X1.026 Y-3.012
X1.449 Y-2.834
X1.841 Y-2.596
X2.196 Y-2.304
X2.504 Y-1.965
X2.853 Y-1.447
X3.167 Y-0.908
X3.442 Y-0.348
X3.625 Y0.191
X3.721 Y0.712
X3.741 Y1.228
X3.686 Y1.739
X3.558 Y2.24
X3.356 Y2.725
X3.08 Y3.186
X2.733 Y3.611
X2.319 Y3.991
X1.844 Y4.316
X1.313 Y4.575
X0.736 Y4.76
X0.12 Y4.862
X-0.503 Y4.876
X-1.123 Y4.802
X-1.727 Y4.645
X-2.304 Y4.409
X-2.846 Y4.1
X-3.344 Y3.724
X-3.79 Y3.288
X-4.176 Y2.797
X-4.496 Y2.261
X-4.744 Y1.689
X-4.919 Y1.09
X-5.019 Y0.474
X-5.042 Y-0.149
X-4.989 Y-0.771
X-4.859 Y-1.381
X-4.652 Y-1.97
X-4.374 Y-2.528
X-4.028 Y-3.048
X-3.621 Y-3.521
X-3.16 Y-3.941
X-2.652 Y-4.303
X-2.102 Y-4.599
X-1.52 Y-4.823
X-0.914 Y-4.972
X-0.295 Y-5.045
X0.329 Y-5.042
X0.948 Y-4.964
X1.553 Y-4.811
X2.135 Y-4.585
X2.683 Y-4.287
X3.19 Y-3.923
X3.648 Y-3.499
X4.059 Y-3.03
X4.431 Y-2.529
X4.763 Y-2.001
X5.05 Y-1.447
X5.287 Y-0.87
X5.468 Y-0.273
X5.584 Y0.34
X5.63 Y0.963
X5.606 Y1.586
X5.514 Y2.203
X5.356 Y2.807
X5.129 Y3.388
X4.836 Y3.939
X4.485 Y4.455
X4.082 Y4.931
X3.629 Y5.36
X3.131 Y5.736
X2.597 Y6.058
X2.033 Y6.326
X1.443 Y6.529
X0.836 Y6.672
X0.218 Y6.757
X-0.406 Y6.777
X-1.028 Y6.734
X-1.644 Y6.634
X-2.248 Y6.476
X-2.832 Y6.257
X-3.394 Y5.986
X-3.93 Y5.667
X-4.433 Y5.297
X-4.898 Y4.881
X-5.324 Y4.426
X-5.708 Y3.934
X-6.041 Y3.406
X-6.325 Y2.851
X-6.561 Y2.273
X-6.74 Y1.675
X-6.864 Y1.064
X-6.934 Y0.444
X-6.951 Y-0.18
X-6.908 Y-0.802
X-6.809 Y-1.418
X-6.657 Y-2.024
X-6.451 Y-2.613
X-6.19 Y-3.179
X-5.879 Y-3.72
X-5.524 Y-4.234
X-5.123 Y-4.711
X-4.68 Y-5.15
X-4.2 Y-5.55
X-3.689 Y-5.907
X-3.145 Y-6.213
X-2.576 Y-6.468
X-1.987 Y-6.674
X-1.381 Y-6.825
X-0.764 Y-6.919
X-0.142 Y-6.959
X0.482 Y-6.946
X1.102 Y-6.875
X1.713 Y-6.748
X2.31 Y-6.569
X2.89 Y-6.339
X3.445 Y-6.053
X3.972 Y-5.719
X4.469 Y-5.341
X4.932 Y-4.923
X5.36 Y-4.47
X5.756 Y-3.987
X6.118 Y-3.479
X6.447 Y-2.949
X6.738 Y-2.397
X6.987 Y-1.825
X7.194 Y-1.237
X7.358 Y-0.634
X7.472 Y-0.021
X7.533 Y0.6
X7.544 Y1.224
X7.506 Y1.847
X7.418 Y2.464
X7.275 Y3.072
X7.082 Y3.665
X6.843 Y4.241
X6.555 Y4.795
X6.222 Y5.322
X5.848 Y5.822
X5.436 Y6.29
X4.985 Y6.722
X4.5 Y7.114
X3.985 Y7.467
X3.446 Y7.781
X2.883 Y8.05
X2.3 Y8.272
X1.701 Y8.448
X1.092 Y8.58
X0.473 Y8.665
X-0.15 Y8.698
X-0.773 Y8.685
X-1.395 Y8.627
X-2.01 Y8.525
X-2.616 Y8.375
X-3.208 Y8.179
X-3.785 Y7.941
X-4.344 Y7.665
X-4.882 Y7.348
X-5.393 Y6.99
X-5.878 Y6.597
X-6.334 Y6.171
X-6.76 Y5.716
X-7.149 Y5.228
X-7.502 Y4.713
X-7.817 Y4.175
X-8.096 Y3.617
X-8.334 Y3.04
X-8.528 Y2.447
X-8.679 Y1.841
X-8.79 Y1.227
X-8.859 Y0.607
X-8.882 Y-0.016
X-8.859 Y-0.64
X-8.792 Y-1.26
X-8.685 Y-1.875
X-8.535 Y-2.481
X-8.339 Y-3.073
X-8.102 Y-3.65
X-7.826 Y-4.209
X-7.514 Y-4.75
X-7.162 Y-5.265
X-6.774 Y-5.754
X-6.353 Y-6.214
X-5.902 Y-6.646
X-5.424 Y-7.046
X-4.917 Y-7.409
X-4.384 Y-7.735
X-3.831 Y-8.023
X-3.259 Y-8.274
X-2.672 Y-8.483
X-2.07 Y-8.648
X-1.458 Y-8.77
X-0.839 Y-8.85
X-0.216 Y-8.89
X0.407 Y-8.883
X1.029 Y-8.831
X1.646 Y-8.737
X2.255 Y-8.601
X2.854 Y-8.425
X3.437 Y-8.204
X4.003 Y-7.941
X4.549 Y-7.64
X5.075 Y-7.304
X5.576 Y-6.932
X6.05 Y-6.526
X6.498 Y-6.091
X6.919 Y-5.631
X7.313 Y-5.147
X7.68 Y-4.643
X8.016 Y-4.117
X8.32 Y-3.572
X8.592 Y-3.011
X8.832 Y-2.435
X9.038 Y-1.846
X9.206 Y-1.245
X9.333 Y-0.634
X9.421 Y-0.016
X9.47 Y0.606
X9.481 Y1.23
X9.45 Y1.853
X9.376 Y2.472
X9.262 Y3.086
X9.108 Y3.69
X8.917 Y4.284
X8.684 Y4.863
X8.413 Y5.425
X8.106 Y5.968
X7.765 Y6.491
X7.393 Y6.991
X6.986 Y7.465
X6.549 Y7.91
X6.083 Y8.326
X5.593 Y8.712
X5.081 Y9.068
X4.546 Y9.388
X3.99 Y9.673
X3.418 Y9.921
X2.832 Y10.135
X2.234 Y10.313
X1.626 Y10.453
X1.01 Y10.552
X0.389 Y10.613
X-0.235 Y10.636
X-0.859 Y10.623
X-1.48 Y10.573
X-2.098 Y10.482
X-2.708 Y10.354
X-3.31 Y10.189
X-3.902 Y9.991
X-4.481 Y9.758
X-5.044 Y9.49
X-5.59 Y9.188
X-6.117 Y8.854
X-6.624 Y8.491
X-7.11 Y8.099
X-7.572 Y7.68
X-8.007 Y7.232
X-8.414 Y6.76
X-8.794 Y6.264
X-9.144 Y5.748
X-9.465 Y5.213
X-9.753 Y4.659
X-10.007 Y4.089
X-10.227 Y3.506
X-10.414 Y2.91
X-10.568 Y2.306
X-10.686 Y1.693
X-10.767 Y1.074
X-10.812 Y0.452
X-10.821 Y-0.172
X-10.795 Y-0.795
X-10.734 Y-1.416
X-10.636 Y-2.032
X-10.501 Y-2.642
X-10.331 Y-3.242
X-10.127 Y-3.832
X-9.891 Y-4.409
X-9.622 Y-4.972
X-9.32 Y-5.518
X-8.986 Y-6.045
X-8.622 Y-6.552
X-8.231 Y-7.038
X-7.813 Y-7.502
X-7.369 Y-7.94
X-6.9 Y-8.351
X-6.408 Y-8.734
X-5.894 Y-9.089
X-5.362 Y-9.414
X-4.811 Y-9.708
X-4.245 Y-9.969
X-3.663 Y-10.196
X-3.07 Y-10.389
X-2.467 Y-10.549
X-1.856 Y-10.674
X-1.238 Y-10.764
X-0.616 Y-10.817
X0.007 Y-10.833
X0.631 Y-10.815
X1.253 Y-10.761
X1.87 Y-10.673
X2.482 Y-10.548
X3.084 Y-10.387
X3.677 Y-10.192
X4.258 Y-9.963
X4.825 Y-9.703
X5.375 Y-9.41
X5.908 Y-9.085
X6.421 Y-8.73
X6.914 Y-8.348
X7.387 Y-7.94
X7.838 Y-7.509
X8.265 Y-7.054
X8.669 Y-6.579
X9.049 Y-6.084
X9.405 Y-5.571
X9.735 Y-5.041
X10.039 Y-4.497
X10.316 Y-3.938
X10.564 Y-3.365
X10.782 Y-2.781
X10.97 Y-2.186
X11.126 Y-1.582
X11.251 Y-0.97
X11.344 Y-0.353
X11.403 Y0.268
X11.428 Y0.891
X11.419 Y1.515
X11.376 Y2.138
X11.301 Y2.757
X11.192 Y3.372
X11.048 Y3.979
X10.872 Y4.577
X10.662 Y5.165
X10.421 Y5.74
X10.15 Y6.302
X9.849 Y6.849
X9.517 Y7.377
X9.158 Y7.887
X8.771 Y8.377
X8.358 Y8.845
X7.921 Y9.29
X7.461 Y9.711
X6.978 Y10.107
X6.475 Y10.476
X5.953 Y10.817
X5.413 Y11.131
X4.858 Y11.416
X4.289 Y11.671
X3.707 Y11.895
X3.114 Y12.089
X2.511 Y12.251
X1.901 Y12.381
X1.285 Y12.481
X0.665 Y12.548
X0.042 Y12.582
X-0.582 Y12.584
X-1.206 Y12.554
X-1.827 Y12.492
X-2.444 Y12.4
X-3.055 Y12.276
X-3.659 Y12.121
X-4.255 Y11.935
X-4.841 Y11.719
X-5.415 Y11.475
X-5.976 Y11.202
X-6.523 Y10.903
X-7.054 Y10.575
X-7.568 Y10.221
X-8.064 Y9.842
X-8.54 Y9.439
X-8.996 Y9.013
X-9.43 Y8.565
X-9.842 Y8.096
X-10.229 Y7.607
X-10.591 Y7.099
X-10.928 Y6.574
X-11.239 Y6.033
X-11.523 Y5.477
X-11.78 Y4.909
X-12.007 Y4.328
X-12.206 Y3.736
X-12.375 Y3.135
X-12.515 Y2.527
X-12.625 Y1.913
X-12.706 Y1.295
X-12.756 Y0.673
X-12.774 Y0.049
X-12.762 Y-0.575
X-12.72 Y-1.197
X-12.647 Y-1.817
X-12.545 Y-2.433
X-12.413 Y-3.042
X-12.25 Y-3.645
X-12.057 Y-4.238
X-11.836 Y-4.822
X-11.587 Y-5.394
X-11.31 Y-5.953
X-11.007 Y-6.498
X-10.677 Y-7.028
X-10.321 Y-7.54
X-9.941 Y-8.035
X-9.537 Y-8.511
X-9.111 Y-8.966
X-8.663 Y-9.401
X-8.195 Y-9.813
X-7.706 Y-10.202
X-7.199 Y-10.565
X-6.675 Y-10.904
X-6.135 Y-11.217
X-5.581 Y-11.503
X-5.013 Y-11.762
X-4.434 Y-11.993
X-3.843 Y-12.195
X-3.244 Y-12.367
X-2.636 Y-12.51
X-2.023 Y-12.624
X-1.405 Y-12.708
X-0.783 Y-12.762
X-0.16 Y-12.785
X0.464 Y-12.777
X1.087 Y-12.739
X1.707 Y-12.671
X2.324 Y-12.573
X2.934 Y-12.446
X3.538 Y-12.289
X4.133 Y-12.101
X4.719 Y-11.885
X5.293 Y-11.64
X5.854 Y-11.368
X6.402 Y-11.07
X6.935 Y-10.745
X7.452 Y-10.396
X7.951 Y-10.022
X8.433 Y-9.625
X8.896 Y-9.206
X9.34 Y-8.768
X9.764 Y-8.311
X10.169 Y-7.836
X10.553 Y-7.344
X10.915 Y-6.836
X11.254 Y-6.313
X11.571 Y-5.775
X11.865 Y-5.225
X12.136 Y-4.662
X12.382 Y-4.089
X12.602 Y-3.505
X12.796 Y-2.912
X12.962 Y-2.311
X13.102 Y-1.703
X13.213 Y-1.089
X13.297 Y-0.471
X13.353 Y0.151
X13.381 Y0.774
X13.379 Y1.398
X13.348 Y2.021
X13.287 Y2.642
X13.199 Y3.26
X13.082 Y3.873
X12.936 Y4.48
X12.763 Y5.079
X12.561 Y5.669
X12.331 Y6.249
X12.075 Y6.818
X11.793 Y7.375
X11.485 Y7.918
X11.153 Y8.446
X10.797 Y8.958
X10.417 Y9.453
X10.013 Y9.929
X9.589 Y10.386
X9.144 Y10.823
X8.679 Y11.24
X8.197 Y11.635
X7.696 Y12.008
X7.179 Y12.357
X6.646 Y12.681
X6.099 Y12.981
X5.538 Y13.256
X4.967 Y13.506
X4.384 Y13.73
X3.793 Y13.927
X3.192 Y14.097
X2.585 Y14.239
X1.971 Y14.355
X1.354 Y14.442
X0.733 Y14.503
X0.11 Y14.536
X-0.514 Y14.543
X-1.138 Y14.52
X-1.76 Y14.469
X-2.379 Y14.392
X-2.994 Y14.287
X-3.604 Y14.156
X-4.208 Y13.999
X-4.804 Y13.816
X-5.392 Y13.606
X-5.97 Y13.371
X-6.537 Y13.11
X-7.092 Y12.826
X-7.635 Y12.518
X-8.164 Y12.187
X-8.678 Y11.834
X-9.177 Y11.459
X-9.659 Y11.063
X-10.123 Y10.645
X-10.568 Y10.209
X-10.995 Y9.753
X-11.402 Y9.28
X-11.788 Y8.79
X-12.154 Y8.285
X-12.496 Y7.763
X-12.816 Y7.227
X-13.112 Y6.678
X-13.385 Y6.117
X-13.634 Y5.545
X-13.859 Y4.963
X-14.059 Y4.372
X-14.233 Y3.773
X-14.381 Y3.167
X-14.503 Y2.555
X-14.6 Y1.938
X-14.67 Y1.318
X-14.714 Y0.696
X-14.732 Y0.072
X-14.724 Y-0.552
X-14.688 Y-1.174
X-14.625 Y-1.795
X-14.537 Y-2.413
X-14.422 Y-3.026
X-14.282 Y-3.634
X-14.116 Y-4.236
X-13.925 Y-4.83
X-13.709 Y-5.415
X-13.467 Y-5.99
X-13.202 Y-6.555
X-12.912 Y-7.108
X-12.6 Y-7.648
X-12.265 Y-8.174
X-11.909 Y-8.686
X-11.531 Y-9.183
X-11.133 Y-9.663
X-10.714 Y-10.125
X-10.276 Y-10.57
X-9.819 Y-10.995
X-9.345 Y-11.401
X-8.855 Y-11.787
X-8.349 Y-12.152
X-7.828 Y-12.495
X-7.292 Y-12.815
X-6.743 Y-13.111
X-6.182 Y-13.385
X-5.61 Y-13.634
X-5.028 Y-13.86
X-4.438 Y-14.06
X-3.839 Y-14.236
X-3.233 Y-14.386
X-2.622 Y-14.509
X-2.005 Y-14.606
X-1.385 Y-14.678
X-0.763 Y-14.724
X-0.14 Y-14.743
X0.484 Y-14.736
X1.107 Y-14.703
X1.729 Y-14.643
X2.346 Y-14.556
X2.96 Y-14.444
X3.569 Y-14.306
X4.171 Y-14.143
X4.766 Y-13.954
X5.352 Y-13.741
X5.928 Y-13.502
X6.494 Y-13.239
X7.048 Y-12.952
X7.59 Y-12.643
X8.119 Y-12.311
X8.633 Y-11.958
X9.133 Y-11.585
X9.618 Y-11.192
X10.086 Y-10.779
X10.537 Y-10.348
X10.971 Y-9.9
X11.388 Y-9.436
X11.787 Y-8.956
X12.167 Y-8.461
X12.529 Y-7.953
X12.871 Y-7.431
X13.193 Y-6.897
X13.494 Y-6.35
X13.774 Y-5.793
X14.033 Y-5.225
X14.27 Y-4.648
X14.485 Y-4.062
X14.676 Y-3.468
X14.845 Y-2.867
X14.989 Y-2.26
X15.109 Y-1.648
X15.204 Y-1.031
X15.275 Y-0.411
X15.321 Y0.211
X15.342 Y0.834
X15.338 Y1.458
X15.309 Y2.082
X15.255 Y2.703
X15.174 Y3.322
X15.069 Y3.937
X14.939 Y4.547
X14.784 Y5.152
X14.605 Y5.749
X14.403 Y6.339
X14.176 Y6.921
X13.925 Y7.492
X13.651 Y8.053
X13.355 Y8.602
X13.037 Y9.138
X12.697 Y9.662
X12.337 Y10.171
X11.956 Y10.666
X11.556 Y11.144
X11.136 Y11.606
X10.698 Y12.05
X10.242 Y12.476
X9.77 Y12.884
X9.282 Y13.273
X8.779 Y13.642
X8.262 Y13.991
X7.731 Y14.319
X7.187 Y14.625
X6.631 Y14.908
X6.065 Y15.17
X5.488 Y15.409
X4.903 Y15.626
X4.31 Y15.819
X3.71 Y15.989
X3.103 Y16.135
X2.491 Y16.256
X1.875 Y16.353
X1.255 Y16.427
X0.633 Y16.476
X0.01 Y16.501
X-0.614 Y16.502
X-1.238 Y16.479
X-1.86 Y16.432
X-2.48 Y16.36
X-3.096 Y16.264
X-3.709 Y16.144
X-4.316 Y16.001
X-4.918 Y15.835
X-5.512 Y15.647
X-6.099 Y15.436
X-6.678 Y15.203
X-7.247 Y14.947
X-7.806 Y14.669
X-8.354 Y14.371
X-8.89 Y14.051
X-9.414 Y13.712
X-9.925 Y13.354
X-10.421 Y12.976
X-10.904 Y12.581
X-11.37 Y12.167
X-11.821 Y11.735
X-12.254 Y11.286
X-12.67 Y10.821
X-13.069 Y10.341
X-13.449 Y9.846
X-13.81 Y9.337
X-14.153 Y8.816
X-14.475 Y8.281
X-14.776 Y7.735
X-15.057 Y7.178
X-15.315 Y6.61
X-15.553 Y6.033
X-15.769 Y5.448
X-15.964 Y4.855
X-16.136 Y4.255
X-16.285 Y3.649
X-16.412 Y3.038
X-16.515 Y2.423
X-16.594 Y1.804
X-16.651 Y1.183
X-16.684 Y0.56
X-16.695 Y-0.064
X-16.682 Y-0.688
X-16.646 Y-1.311
X-16.587 Y-1.932
X-16.504 Y-2.55
X-16.397 Y-3.165
X-16.268 Y-3.775
X-16.115 Y-4.381
X-15.941 Y-4.98
X-15.745 Y-5.572
X-15.526 Y-6.156
X-15.286 Y-6.732
X-15.025 Y-7.299
X-14.741 Y-7.855
X-14.437 Y-8.4
X-14.113 Y-8.933
X-13.77 Y-9.454
X-13.408 Y-9.962
X-13.027 Y-10.456
X-12.628 Y-10.935
X-12.211 Y-11.4
X-11.777 Y-11.848
X-11.326 Y-12.28
X-10.86 Y-12.694
X-10.378 Y-13.091
X-9.882 Y-13.469
X-9.373 Y-13.829
X-8.85 Y-14.17
X-8.315 Y-14.491
X-7.768 Y-14.792
X-7.211 Y-15.072
X-6.643 Y-15.33
X-6.065 Y-15.567
X-5.48 Y-15.782
X-4.887 Y-15.976
X-4.287 Y-16.148
X-3.681 Y-16.297
X-3.07 Y-16.424
X-2.455 Y-16.527
X-1.836 Y-16.606
X-1.214 Y-16.663
X-0.591 Y-16.696
X0.033 Y-16.707
X0.656 Y-16.694
X1.279 Y-16.658
X1.9 Y-16.6
X2.519 Y-16.518
X3.134 Y-16.412
X3.744 Y-16.283
X4.35 Y-16.132
X4.949 Y-15.958
X5.541 Y-15.763
X6.126 Y-15.545
X6.703 Y-15.306
X7.27 Y-15.046
X7.826 Y-14.764
X8.372 Y-14.462
X8.906 Y-14.139
X9.429 Y-13.798
X9.938 Y-13.438
X10.435 Y-13.06
X10.918 Y-12.665
X11.386 Y-12.253
X11.84 Y-11.825
X12.278 Y-11.38
X12.701 Y-10.921
X13.107 Y-10.448
X13.498 Y-9.961
X13.871 Y-9.462
X14.228 Y-8.95
X14.568 Y-8.426
X14.889 Y-7.892
X15.193 Y-7.346
X15.477 Y-6.791
X15.742 Y-6.226
X15.987 Y-5.652
X16.212 Y-5.07
X16.418 Y-4.481
X16.603 Y-3.885
X16.767 Y-3.283
X16.91 Y-2.676
X17.032 Y-2.064
X17.131 Y-1.448
X17.209 Y-0.829
X17.264 Y-0.208
X17.297 Y0.415
X17.308 Y1.039
X17.297 Y1.663
X17.264 Y2.286
X17.208 Y2.908
X17.13 Y3.527
X17.03 Y4.143
X16.907 Y4.754
X16.762 Y5.361
X16.595 Y5.962
X16.407 Y6.557
X16.198 Y7.145
X15.968 Y7.725
X15.717 Y8.297
X15.446 Y8.859
X15.155 Y9.41
X14.843 Y9.951
X14.512 Y10.48
X14.163 Y10.997
X13.795 Y11.501
X13.41 Y11.991
X13.007 Y12.468
X12.588 Y12.93
X12.152 Y13.377
X11.701 Y13.807
X11.234 Y14.221
X10.753 Y14.618
X10.257 Y14.998
X9.749 Y15.36
X9.229 Y15.704
X8.697 Y16.03
X8.153 Y16.336
X7.599 Y16.624
X7.035 Y16.89
X6.462 Y17.137
X5.881 Y17.363
X5.292 Y17.569
X4.696 Y17.754
X4.094 Y17.919
X3.487 Y18.062
X2.875 Y18.184
X2.259 Y18.285
X1.64 Y18.364
X1.019 Y18.421
X0.396 Y18.456
X-0.228 Y18.47
X-0.852 Y18.462
X-1.475 Y18.434
X-2.097 Y18.383
X-2.717 Y18.312
X-3.334 Y18.219
X-3.947 Y18.104
X-4.556 Y17.968
X-5.16 Y17.812
X-5.759 Y17.635
X-6.35 Y17.437
X-6.935 Y17.22
X-7.513 Y16.984
X-8.082 Y16.727
X-8.641 Y16.452
X-9.192 Y16.157
X-9.731 Y15.844
X-10.259 Y15.512
X-10.776 Y15.163
X-11.281 Y14.796
X-11.774 Y14.413
X-12.253 Y14.013
X-12.718 Y13.598
X-13.17 Y13.167
X-13.606 Y12.721
X-14.026 Y12.26
X-14.431 Y11.785
X-14.819 Y11.296
X-15.191 Y10.795
X-15.545 Y10.282
X-15.883 Y9.757
X-16.203 Y9.221
X-16.504 Y8.675
X-16.787 Y8.119
X-17.051 Y7.553
X-17.295 Y6.979
X-17.519 Y6.397
X-17.724 Y5.808
X-17.91 Y5.212
X-18.076 Y4.61
X-18.221 Y4.004
X-18.346 Y3.392
X-18.451 Y2.777
X-18.535 Y2.159
X-18.597 Y1.538
X-18.639 Y0.916
X-18.66 Y0.292
Y-0.332
X-18.639 Y-0.955
X-18.598 Y-1.578
X-18.536 Y-2.199
X-18.453 Y-2.817
X-18.349 Y-3.433
X-18.225 Y-4.044
X-18.08 Y-4.651
X-17.914 Y-5.252
X-17.728 Y-5.848
X-17.523 Y-6.437
X-17.299 Y-7.02
X-17.055 Y-7.594
X-16.793 Y-8.16
X-16.511 Y-8.717
X-16.211 Y-9.264
X-15.892 Y-9.8
X-15.556 Y-10.326
X-15.202 Y-10.839
X-14.831 Y-11.341
X-14.444 Y-11.831
X-14.041 Y-12.307
X-13.623 Y-12.77
X-13.189 Y-13.218
X-12.74 Y-13.652
X-12.277 Y-14.07
X-11.8 Y-14.472
X-11.31 Y-14.858
X-10.807 Y-15.228
X-10.292 Y-15.581
X-9.766 Y-15.916
X-9.229 Y-16.234
X-8.682 Y-16.534
X-8.125 Y-16.815
X-7.559 Y-17.077
X-6.984 Y-17.32
X-6.402 Y-17.543
X-5.812 Y-17.747
X-5.216 Y-17.931
X-4.614 Y-18.095
X-4.007 Y-18.239
X-3.395 Y-18.363
X-2.78 Y-18.467
X-2.161 Y-18.55
X-1.541 Y-18.612
X-0.918 Y-18.652
X-0.294 Y-18.672
X0.33 Y-18.671
X0.953 Y-18.65
X1.576 Y-18.608
X2.197 Y-18.545
X2.815 Y-18.462
X3.43 Y-18.358
X4.042 Y-18.234
X4.648 Y-18.089
X5.25 Y-17.923
X5.846 Y-17.737
X6.435 Y-17.532
X7.017 Y-17.307
X7.591 Y-17.064
X8.157 Y-16.801
X8.714 Y-16.52
X9.262 Y-16.221
X9.799 Y-15.903
X10.325 Y-15.567
X10.84 Y-15.215
X11.343 Y-14.846
X11.834 Y-14.461
X12.313 Y-14.061
X12.779 Y-13.646
X13.232 Y-13.217
X13.671 Y-12.774
X14.096 Y-12.317
X14.506 Y-11.847
X14.902 Y-11.364
X15.282 Y-10.87
X15.647 Y-10.364
X15.997 Y-9.847
X16.331 Y-9.32
X16.649 Y-8.783
X16.95 Y-8.237
X17.234 Y-7.681
X17.501 Y-7.117
X17.75 Y-6.545
X17.981 Y-5.966
X18.194 Y-5.379
X18.388 Y-4.786
X18.564 Y-4.187
X18.721 Y-3.584
X18.859 Y-2.975
X18.978 Y-2.363
X19.077 Y-1.747
X19.157 Y-1.128
X19.217 Y-0.507
X19.256 Y0.116
X19.275 Y0.74
X19.274 Y1.364
X19.253 Y1.987
X19.213 Y2.61
X19.152 Y3.231
X19.072 Y3.85
X18.972 Y4.465
X18.852 Y5.078
X18.711 Y5.686
X18.551 Y6.289
X18.371 Y6.886
X18.172 Y7.478
X17.954 Y8.062
X17.718 Y8.64
X17.463 Y9.209
X17.19 Y9.77
X16.899 Y10.322
X16.591 Y10.865
X16.264 Y11.396
X15.921 Y11.917
X15.56 Y12.426
X15.184 Y12.924
X14.792 Y13.409
X14.384 Y13.882
X13.962 Y14.341
X13.525 Y14.787
X13.075 Y15.218
X12.61 Y15.635
X12.132 Y16.036
X11.642 Y16.422
X11.139 Y16.791
X10.625 Y17.145
X10.1 Y17.482
X9.564 Y17.802
X9.019 Y18.106
X8.465 Y18.391
X7.901 Y18.66
X7.33 Y18.91
X6.75 Y19.141
X6.163 Y19.354
X5.57 Y19.548
X4.972 Y19.723
X4.368 Y19.88
X3.759 Y20.017
X3.147 Y20.136
X2.531 Y20.235
X1.912 Y20.315
X1.291 Y20.376
X0.668 Y20.416
X0.045 Y20.437
X-0.579 Y20.438
X-1.203 Y20.42
X-1.826 Y20.383
X-2.447 Y20.327
X-3.067 Y20.251
X-3.683 Y20.157
X-4.297 Y20.043
X-4.907 Y19.91
X-5.512 Y19.759
X-6.112 Y19.588
X-6.706 Y19.398
X-7.295 Y19.191
X-7.877 Y18.966
X-8.452 Y18.723
X-9.019 Y18.463
X-9.577 Y18.185
X-10.128 Y17.891
X-10.668 Y17.579
X-11.199 Y17.251
X-11.719 Y16.907
X-12.229 Y16.547
X-12.727 Y16.171
X-13.214 Y15.78
X-13.688 Y15.375
X-14.15 Y14.956
X-14.599 Y14.523
X-15.035 Y14.076
X-15.457 Y13.616
X-15.864 Y13.144
X-16.257 Y12.659
X-16.634 Y12.162
X-16.996 Y11.654
X-17.342 Y11.135
X-17.673 Y10.606
X-17.988 Y10.067
X-18.286 Y9.519
X-18.567 Y8.962
X-18.832 Y8.397
X-19.079 Y7.824
X-19.308 Y7.243
X-19.519 Y6.656
X-19.712 Y6.063
X-19.887 Y5.464
X-20.044 Y4.86
X-20.183 Y4.252
X-20.304 Y3.64
X-20.406 Y3.024
X-20.489 Y2.406
X-20.554 Y1.785
X-20.6 Y1.163
X-20.626 Y0.54
X-20.633 Y-0.084
X-20.621 Y-0.708
X-20.591 Y-1.331
X-20.542 Y-1.953
X-20.475 Y-2.574
X-20.388 Y-3.192
X-20.283 Y-3.807
X-20.16 Y-4.418
X-20.018 Y-5.026
X-19.857 Y-5.629
X-19.678 Y-6.226
X-19.48 Y-6.818
X-19.265 Y-7.404
X-19.033 Y-7.983
X-18.783 Y-8.555
X-18.517 Y-9.119
X-18.233 Y-9.675
X-17.933 Y-10.222
X-17.616 Y-10.759
X-17.283 Y-11.287
X-16.934 Y-11.804
X-16.569 Y-12.31
X-16.189 Y-12.805
X-15.795 Y-13.289
X-15.386 Y-13.76
X-14.964 Y-14.219
X-14.528 Y-14.665
X-14.078 Y-15.098
X-13.616 Y-15.517
X-13.141 Y-15.922
X-12.654 Y-16.312
X-12.155 Y-16.687
X-11.645 Y-17.046
X-11.124 Y-17.39
X-10.594 Y-17.718
X-10.054 Y-18.031
X-9.504 Y-18.327
X-8.946 Y-18.606
X-8.38 Y-18.868
X-7.806 Y-19.113
X-7.225 Y-19.34
X-6.637 Y-19.549
X-6.044 Y-19.741
X-5.444 Y-19.914
X-4.84 Y-20.069
X-4.231 Y-20.206
X-3.619 Y-20.325
X-3.003 Y-20.425
X-2.384 Y-20.507
X-1.763 Y-20.57
X-1.141 Y-20.615
X-0.518 Y-20.639
X0.106 Y-20.645
X0.73 Y-20.632
X1.353 Y-20.6
X1.975 Y-20.55
X2.595 Y-20.481
X3.213 Y-20.394
X3.828 Y-20.288
X4.439 Y-20.164
X5.047 Y-20.021
X5.649 Y-19.859
X6.247 Y-19.679
X6.839 Y-19.481
X7.424 Y-19.265
X8.003 Y-19.032
X8.574 Y-18.782
X9.138 Y-18.515
X9.694 Y-18.231
X10.241 Y-17.93
X10.778 Y-17.614
X11.306 Y-17.281
X11.824 Y-16.933
X12.331 Y-16.569
X12.827 Y-16.191
X13.312 Y-15.799
X13.786 Y-15.392
X14.248 Y-14.973
X14.697 Y-14.541
X15.135 Y-14.096
X15.559 Y-13.638
X15.971 Y-13.169
X16.369 Y-12.689
X16.753 Y-12.197
X17.123 Y-11.695
X17.479 Y-11.182
X17.82 Y-10.66
X18.147 Y-10.128
X18.459 Y-9.588
X18.756 Y-9.039
X19.038 Y-8.483
X19.304 Y-7.918
X19.553 Y-7.346
X19.787 Y-6.768
X20.003 Y-6.183
X20.203 Y-5.591
X20.385 Y-4.995
X20.551 Y-4.393
X20.699 Y-3.787
X20.83 Y-3.177
X20.944 Y-2.564
X21.04 Y-1.947
X21.118 Y-1.328
X21.178 Y-0.707
X21.22 Y-0.084
X21.244 Y0.539
X21.249 Y1.163
X21.235 Y1.787
X21.204 Y2.41
X21.155 Y3.032
X21.087 Y3.652
X21.002 Y4.27
X20.899 Y4.886
X20.777 Y5.498
X20.638 Y6.106
X20.481 Y6.71
X20.306 Y7.309
X20.113 Y7.902
X19.902 Y8.489
X19.675 Y9.07
X19.431 Y9.644
X19.17 Y10.211
X18.893 Y10.77
X18.6 Y11.321
X18.29 Y11.863
X17.965 Y12.396
X17.625 Y12.918
X17.268 Y13.431
X16.897 Y13.932
X16.511 Y14.422
X16.112 Y14.902
X15.698 Y15.369
X15.271 Y15.824
X14.832 Y16.267
X14.379 Y16.697
X13.915 Y17.113
X13.438 Y17.516
X12.95 Y17.904
X12.45 Y18.278
X11.94 Y18.637
X11.419 Y18.981
X10.889 Y19.31
X10.35 Y19.624
X9.802 Y19.922
X9.245 Y20.204
X8.681 Y20.471
X8.11 Y20.72
X7.531 Y20.954
X6.946 Y21.17
X6.354 Y21.369
X5.757 Y21.551
X5.155 Y21.715
X4.549 Y21.863
X3.939 Y21.993
X3.325 Y22.106
X2.709 Y22.201
X2.09 Y22.279
X1.469 Y22.34
X0.846 Y22.382
X0.223 Y22.407
X-0.401 Y22.413
X-1.025 Y22.402
X-1.648 Y22.372
X-2.271 Y22.326
X-2.891 Y22.262
X-3.51 Y22.18
X-4.126 Y22.082
X-4.739 Y21.966
X-5.348 Y21.832
X-5.954 Y21.682
X-6.555 Y21.515
X-7.151 Y21.33
X-7.742 Y21.128
X-8.326 Y20.91
X-8.904 Y20.676
X-9.476 Y20.425
X-10.04 Y20.159
X-10.597 Y19.878
X-11.146 Y19.581
X-11.686 Y19.269
X-12.217 Y18.942
X-12.739 Y18.6
X-13.251 Y18.243
X-13.753 Y17.872
X-14.244 Y17.487
X-14.724 Y17.088
X-15.193 Y16.677
X-15.65 Y16.252
X-16.096 Y15.815
X-16.529 Y15.367
X-16.95 Y14.906
X-17.357 Y14.433
X-17.752 Y13.95
X-18.132 Y13.455
X-18.498 Y12.95
X-18.85 Y12.435
X-19.188 Y11.91
X-19.511 Y11.376
X-19.819 Y10.834
X-20.112 Y10.283
X-20.39 Y9.724
X-20.652 Y9.158
X-20.899 Y8.585
X-21.129 Y8.005
X-21.343 Y7.419
X-21.541 Y6.827
X-21.722 Y6.23
X-21.886 Y5.628
X-22.034 Y5.022
X-22.165 Y4.412
X-22.279 Y3.798
X-22.376 Y3.182
X-22.457 Y2.563
X-22.52 Y1.943
X-22.567 Y1.32
X-22.596 Y0.697
X-22.607 Y0.073
X-22.601 Y-0.551
X-22.577 Y-1.174
X-22.536 Y-1.797
X-22.479 Y-2.418
X-22.404 Y-3.037
X-22.312 Y-3.655
X-22.204 Y-4.269
X-22.078 Y-4.88
X-21.936 Y-5.488
X-21.777 Y-6.091
X-21.601 Y-6.69
X-21.408 Y-7.283
X-21.199 Y-7.871
X-20.973 Y-8.453
X-20.732 Y-9.028
X-20.475 Y-9.597
X-20.203 Y-10.158
X-19.915 Y-10.712
X-19.613 Y-11.258
X-19.295 Y-11.795
X-18.963 Y-12.323
X-18.616 Y-12.841
X-18.255 Y-13.35
X-17.879 Y-13.849
X-17.49 Y-14.336
X-17.088 Y-14.813
X-16.673 Y-15.279
X-16.245 Y-15.733
X-15.805 Y-16.176
X-15.353 Y-16.606
X-14.89 Y-17.024
X-14.415 Y-17.428
X-13.929 Y-17.82
X-13.432 Y-18.198
X-12.925 Y-18.561
X-12.408 Y-18.91
X-11.882 Y-19.245
X-11.346 Y-19.565
X-10.802 Y-19.871
X-10.25 Y-20.161
X-9.69 Y-20.437
X-9.123 Y-20.697
X-8.549 Y-20.941
X-7.968 Y-21.169
X-7.381 Y-21.381
X-6.789 Y-21.576
X-6.191 Y-21.755
X-5.588 Y-21.917
X-4.981 Y-22.062
X-4.371 Y-22.191
X-3.757 Y-22.303
X-3.141 Y-22.399
X-2.522 Y-22.477
X-1.901 Y-22.538
X-1.278 Y-22.583
X-0.655 Y-22.61
X-0.031 Y-22.619
X0.593 Y-22.611
X1.216 Y-22.586
X1.839 Y-22.543
X2.46 Y-22.484
X3.079 Y-22.408
X3.696 Y-22.314
X4.31 Y-22.204
X4.921 Y-22.078
X5.528 Y-21.934
X6.131 Y-21.773
X6.73 Y-21.596
X7.323 Y-21.403
X7.91 Y-21.192
X8.491 Y-20.966
X9.066 Y-20.723
X9.635 Y-20.465
X10.195 Y-20.192
X10.749 Y-19.904
X11.294 Y-19.601
X11.831 Y-19.283
X12.359 Y-18.951
X12.878 Y-18.604
X13.387 Y-18.243
X13.886 Y-17.869
X14.375 Y-17.481
X14.854 Y-17.081
X15.321 Y-16.668
X15.778 Y-16.243
X16.224 Y-15.806
X16.658 Y-15.358
X17.081 Y-14.899
X17.491 Y-14.429
X17.89 Y-13.949
X18.275 Y-13.458
X18.648 Y-12.958
X19.007 Y-12.448
X19.353 Y-11.929
X19.686 Y-11.401
X20.005 Y-10.865
X20.311 Y-10.321
X20.602 Y-9.769
X20.879 Y-9.21
X21.142 Y-8.644
X21.39 Y-8.072
X21.623 Y-7.493
X21.841 Y-6.908
X22.044 Y-6.318
X22.23 Y-5.723
X22.401 Y-5.123
X22.556 Y-4.518
X22.695 Y-3.91
X22.818 Y-3.298
X22.925 Y-2.683
X23.016 Y-2.066
X23.091 Y-1.447
X23.149 Y-0.826
X23.191 Y-0.203
X23.216 Y0.42
X23.224 Y1.044
X23.215 Y1.668
X23.189 Y2.292
X23.147 Y2.914
X23.088 Y3.535
X23.013 Y4.155
X22.921 Y4.772
X22.813 Y5.386
X22.688 Y5.998
X22.547 Y6.606
X22.39 Y7.209
X22.217 Y7.809
X22.027 Y8.403
X21.821 Y8.992
X21.6 Y9.575
X21.362 Y10.152
X21.11 Y10.723
X20.842 Y11.287
X20.559 Y11.843
X20.262 Y12.392
X19.951 Y12.932
X19.624 Y13.464
X19.284 Y13.987
X18.93 Y14.501
X18.562 Y15.005
X18.18 Y15.498
X17.785 Y15.981
X17.378 Y16.453
X16.958 Y16.915
X16.526 Y17.365
X16.082 Y17.804
X15.627 Y18.23
X15.16 Y18.645
X14.683 Y19.047
X14.196 Y19.436
X13.698 Y19.812
X13.19 Y20.174
X12.672 Y20.523
X12.145 Y20.857
X11.61 Y21.178
X11.066 Y21.484
X10.515 Y21.776
X9.956 Y22.053
X9.39 Y22.316
X8.817 Y22.564
X8.238 Y22.797
X7.653 Y23.014
X7.063 Y23.215
X6.467 Y23.401
X5.867 Y23.57
X5.262 Y23.724
X4.654 Y23.862
X4.042 Y23.984
X3.427 Y24.09
X2.809 Y24.18
X2.19 Y24.254
X1.569 Y24.312
X0.946 Y24.354
X0.323 Y24.379
X-0.301 Y24.388
X-0.925 Y24.381
X-1.549 Y24.357
X-2.171 Y24.316
X-2.793 Y24.259
X-3.412 Y24.187
X-4.03 Y24.099
X-4.645 Y23.994
X-5.258 Y23.874
X-5.867 Y23.739
X-6.472 Y23.587
X-7.073 Y23.42
X-7.67 Y23.238
X-8.261 Y23.04
X-8.848 Y22.826
X-9.428 Y22.597
X-10.002 Y22.354
X-10.57 Y22.095
X-11.132 Y21.823
X-11.686 Y21.536
X-12.232 Y21.235
X-12.771 Y20.92
X-13.302 Y20.592
X-13.824 Y20.25
X-14.337 Y19.895
X-14.84 Y19.527
X-15.334 Y19.145
X-15.818 Y18.751
X-16.291 Y18.344
X-16.754 Y17.926
X-17.206 Y17.496
X-17.647 Y17.055
X-18.077 Y16.602
X-18.495 Y16.139
X-18.901 Y15.666
X-19.295 Y15.182
X-19.676 Y14.688
X-20.045 Y14.184
X-20.4 Y13.671
X-20.742 Y13.149
X-21.07 Y12.619
X-21.385 Y12.08
X-21.686 Y11.534
X-21.973 Y10.98
X-22.246 Y10.419
X-22.505 Y9.851
X-22.749 Y9.277
X-22.979 Y8.697
X-23.194 Y8.111
X-23.393 Y7.52
X-23.578 Y6.924
X-23.746 Y6.323
X-23.9 Y5.718
X-24.038 Y5.109
X-24.16 Y4.498
X-24.267 Y3.883
X-24.359 Y3.266
X-24.435 Y2.647
X-24.495 Y2.026
X-24.54 Y1.403
X-24.569 Y0.78
X-24.582 Y0.156
X-24.579 Y-0.468
X-24.559 Y-1.091
X-24.524 Y-1.714
X-24.472 Y-2.336
X-24.405 Y-2.957
X-24.323 Y-3.575
X-24.225 Y-4.191
X-24.111 Y-4.805
X-23.982 Y-5.415
X-23.838 Y-6.022
X-23.678 Y-6.625
X-23.503 Y-7.224
X-23.313 Y-7.818
X-23.107 Y-8.408
X-22.886 Y-8.991
X-22.65 Y-9.569
X-22.4 Y-10.14
X-22.135 Y-10.705
X-21.857 Y-11.264
X-21.564 Y-11.815
X-21.258 Y-12.358
X-20.938 Y-12.894
X-20.604 Y-13.421
X-20.258 Y-13.94
X-19.898 Y-14.45
X-19.525 Y-14.95
X-19.139 Y-15.441
X-18.741 Y-15.921
X-18.331 Y-16.391
X-17.909 Y-16.851
X-17.476 Y-17.3
X-17.032 Y-17.738
X-16.576 Y-18.165
X-16.11 Y-18.58
X-15.634 Y-18.983
X-15.148 Y-19.374
X-14.652 Y-19.752
X-14.146 Y-20.118
X-13.632 Y-20.47
X-13.108 Y-20.809
X-12.575 Y-21.135
X-12.035 Y-21.447
X-11.487 Y-21.745
X-10.932 Y-22.029
X-10.369 Y-22.3
X-9.8 Y-22.556
X-9.225 Y-22.798
X-8.644 Y-23.025
X-8.057 Y-23.237
X-7.465 Y-23.434
X-6.868 Y-23.616
X-6.267 Y-23.782
X-5.662 Y-23.933
X-5.053 Y-24.069
X-4.44 Y-24.189
X-3.825 Y-24.293
X-3.208 Y-24.383
X-2.588 Y-24.456
X-1.967 Y-24.515
X-1.344 Y-24.557
X-0.721 Y-24.584
X-0.097 Y-24.594
X0.527 Y-24.589
X1.15 Y-24.568
X1.773 Y-24.53
X2.395 Y-24.477
X3.015 Y-24.408
X3.633 Y-24.324
X4.249 Y-24.224
X4.862 Y-24.108
X5.472 Y-23.978
X6.079 Y-23.832
X6.682 Y-23.67
X7.28 Y-23.494
X7.874 Y-23.302
X8.462 Y-23.095
X9.045 Y-22.872
X9.623 Y-22.635
X10.194 Y-22.384
X10.758 Y-22.118
X11.316 Y-21.838
X11.866 Y-21.545
X12.409 Y-21.237
X12.945 Y-20.917
X13.472 Y-20.583
X13.991 Y-20.236
X14.501 Y-19.877
X15.001 Y-19.505
X15.493 Y-19.12
X15.974 Y-18.723
X16.446 Y-18.315
X16.907 Y-17.895
X17.359 Y-17.464
X17.8 Y-17.023
X18.23 Y-16.571
X18.65 Y-16.109
X19.058 Y-15.637
X19.455 Y-15.156
X19.84 Y-14.665
X20.214 Y-14.166
X20.576 Y-13.657
X20.925 Y-13.14
X21.261 Y-12.614
X21.585 Y-12.081
X21.896 Y-11.54
X22.194 Y-10.992
X22.479 Y-10.437
X22.751 Y-9.876
X23.01 Y-9.308
X23.255 Y-8.734
X23.486 Y-8.155
X23.704 Y-7.57
X23.907 Y-6.98
X24.095 Y-6.385
X24.269 Y-5.786
X24.428 Y-5.182
X24.573 Y-4.575
X24.702 Y-3.965
X24.817 Y-3.352
X24.917 Y-2.736
X25.002 Y-2.118
X25.072 Y-1.498
X25.127 Y-0.876
X25.166 Y-0.254
X25.191 Y0.37
X25.2 Y0.994
X25.193 Y1.618
X25.171 Y2.241
X25.133 Y2.864
X25.08 Y3.486
X25.012 Y4.106
X24.928 Y4.724
X24.829 Y5.34
X24.715 Y5.954
X24.586 Y6.564
X24.442 Y7.171
X24.284 Y7.775
X24.11 Y8.374
X23.922 Y8.969
X23.718 Y9.559
X23.5 Y10.143
X23.267 Y10.722
X23.02 Y11.295
X22.759 Y11.862
X22.484 Y12.422
X22.195 Y12.975
X21.893 Y13.521
X21.578 Y14.06
X21.25 Y14.59
X20.908 Y15.112
X20.554 Y15.626
X20.187 Y16.131
X19.808 Y16.626
X19.416 Y17.112
X19.012 Y17.587
X18.597 Y18.053
X18.17 Y18.508
X17.733 Y18.953
X17.285 Y19.387
X16.826 Y19.81
X16.357 Y20.222
X15.878 Y20.622
X15.39 Y21.01
X14.892 Y21.386
X14.385 Y21.75
X13.869 Y22.101
X13.345 Y22.439
X12.812 Y22.764
X12.272 Y23.076
X11.724 Y23.374
X11.169 Y23.66
X10.607 Y23.932
X10.039 Y24.19
X9.465 Y24.434
X8.885 Y24.665
X8.3 Y24.881
X7.71 Y25.083
X7.115 Y25.27
X6.515 Y25.443
X5.911 Y25.601
X5.304 Y25.744
X4.693 Y25.872
X4.08 Y25.985
X3.464 Y26.084
X2.846 Y26.168
X2.225 Y26.237
X1.604 Y26.291
X0.981 Y26.331
X0.358 Y26.355
X-0.266 Y26.365
X-0.89 Y26.359
X-1.514 Y26.338
X-2.137 Y26.301
X-2.758 Y26.25
X-3.379 Y26.184
X-3.997 Y26.102
X-4.614 Y26.007
X-5.228 Y25.896
X-5.839 Y25.771
X-6.448 Y25.632
X-7.052 Y25.478
X-7.653 Y25.31
X-8.25 Y25.128
X-8.842 Y24.931
X-9.429 Y24.72
X-10.011 Y24.495
X-10.587 Y24.256
X-11.158 Y24.003
X-11.722 Y23.736
X-12.28 Y23.457
X-12.831 Y23.164
X-13.375 Y22.859
X-13.912 Y22.541
X-14.441 Y22.21
X-14.962 Y21.867
X-15.475 Y21.511
X-15.979 Y21.144
X-16.474 Y20.764
X-16.96 Y20.373
X-17.436 Y19.97
X-17.903 Y19.555
X-18.359 Y19.13
X-18.806 Y18.694
X-19.242 Y18.248
X-19.668 Y17.792
X-20.083 Y17.326
X-20.486 Y16.85
X-20.879 Y16.365
X-21.26 Y15.871
X-21.629 Y15.368
X-21.986 Y14.856
X-22.33 Y14.336
X-22.662 Y13.808
X-22.981 Y13.272
X-23.288 Y12.728
X-23.581 Y12.177
X-23.862 Y11.62
X-24.13 Y11.057
X-24.384 Y10.487
X-24.625 Y9.911
X-24.853 Y9.33
X-25.066 Y8.744
X-25.266 Y8.153
X-25.452 Y7.557
X-25.624 Y6.958
X-25.781 Y6.354
X-25.923 Y5.746
X-26.051 Y5.136
X-26.165 Y4.522
X-26.265 Y3.906
X-26.35 Y3.288
X-26.421 Y2.668
X-26.477 Y2.047
X-26.519 Y1.424
X-26.546 Y0.801
X-26.559 Y0.177
X-26.556 Y-0.447
X-26.539 Y-1.071
X-26.507 Y-1.694
X-26.46 Y-2.316
X-26.399 Y-2.937
X-26.322 Y-3.556
X-26.232 Y-4.173
X-26.127 Y-4.788
X-26.008 Y-5.401
X-25.874 Y-6.01
X-25.726 Y-6.617
X-25.565 Y-7.219
X-25.389 Y-7.818
X-25.199 Y-8.412
X-24.995 Y-9.002
X-24.777 Y-9.586
X-24.545 Y-10.166
X-24.299 Y-10.739
X-24.04 Y-11.307
X-23.767 Y-11.868
X-23.482 Y-12.423
X-23.184 Y-12.971
X-22.873 Y-13.512
X-22.55 Y-14.046
X-22.214 Y-14.572
X-21.866 Y-15.09
X-21.506 Y-15.599
X-21.134 Y-16.1
X-20.751 Y-16.592
X-20.355 Y-17.075
X-19.949 Y-17.548
X-19.531 Y-18.012
X-19.102 Y-18.465
X-18.663 Y-18.909
X-18.214 Y-19.342
X-17.755 Y-19.764
X-17.286 Y-20.176
X-16.808 Y-20.577
X-16.321 Y-20.966
X-15.824 Y-21.344
X-15.319 Y-21.71
X-14.805 Y-22.064
X-14.283 Y-22.406
X-13.753 Y-22.735
X-13.215 Y-23.051
X-12.67 Y-23.355
X-12.118 Y-23.646
X-11.559 Y-23.924
X-10.994 Y-24.188
X-10.423 Y-24.44
X-9.847 Y-24.678
X-9.265 Y-24.903
X-8.678 Y-25.114
X-8.086 Y-25.311
X-7.489 Y-25.495
X-6.889 Y-25.664
X-6.284 Y-25.818
X-5.676 Y-25.958
X-5.065 Y-26.084
X-4.451 Y-26.195
X-3.834 Y-26.292
X-3.216 Y-26.375
X-2.596 Y-26.443
X-1.974 Y-26.497
X-1.352 Y-26.536
X-0.728 Y-26.561
X-0.104 Y-26.571
X0.52 Y-26.567
X1.143 Y-26.548
X1.766 Y-26.514
X2.388 Y-26.465
X3.009 Y-26.401
X3.628 Y-26.322
X4.245 Y-26.23
X4.86 Y-26.123
X5.472 Y-26.001
X6.081 Y-25.866
X6.687 Y-25.717
X7.289 Y-25.553
X7.887 Y-25.375
X8.481 Y-25.184
X9.07 Y-24.978
X9.654 Y-24.758
X10.232 Y-24.525
X10.805 Y-24.278
X11.372 Y-24.017
X11.933 Y-23.743
X12.487 Y-23.457
X13.035 Y-23.157
X13.575 Y-22.846
X14.108 Y-22.522
X14.634 Y-22.186
X15.152 Y-21.838
X15.662 Y-21.478
X16.163 Y-21.106
X16.655 Y-20.723
X17.139 Y-20.329
X17.613 Y-19.923
X18.078 Y-19.507
X18.533 Y-19.081
X18.979 Y-18.644
X19.415 Y-18.198
X19.841 Y-17.742
X20.257 Y-17.277
X20.663 Y-16.803
X21.058 Y-16.319
X21.442 Y-15.828
X21.815 Y-15.328
X22.177 Y-14.82
X22.527 Y-14.303
X22.866 Y-13.78
X23.193 Y-13.248
X23.508 Y-12.71
X23.811 Y-12.164
X24.102 Y-11.612
X24.381 Y-11.054
X24.647 Y-10.49
X24.901 Y-9.92
X25.143 Y-9.344
X25.371 Y-8.764
X25.587 Y-8.178
X25.789 Y-7.588
X25.978 Y-6.993
X26.153 Y-6.395
X26.315 Y-5.792
X26.463 Y-5.186
X26.597 Y-4.576
X26.717 Y-3.964
X26.823 Y-3.349
X26.916 Y-2.732
X26.995 Y-2.113
X27.059 Y-1.493
X27.11 Y-0.871
X27.147 Y-0.248
X27.169 Y0.376
X27.177 Y0.999
X27.171 Y1.623
X27.151 Y2.247
X27.116 Y2.87
X27.067 Y3.492
X27.003 Y4.113
X26.925 Y4.732
X26.833 Y5.349
X26.727 Y5.964
X26.607 Y6.576
X26.473 Y7.185
X26.325 Y7.792
X26.164 Y8.394
X25.989 Y8.993
X25.8 Y9.588
X25.597 Y10.178
X25.381 Y10.763
X25.151 Y11.343
X24.908 Y11.918
X24.651 Y12.487
X24.382 Y13.049
X24.099 Y13.606
X23.805 Y14.156
X23.497 Y14.699
X23.178 Y15.235
X22.846 Y15.763
X22.503 Y16.284
X22.148 Y16.797
X21.781 Y17.302
X21.402 Y17.798
X21.013 Y18.285
X20.611 Y18.763
X20.199 Y19.232
X19.777 Y19.69
X19.343 Y20.139
X18.9 Y20.579
X18.447 Y21.008
X17.985 Y21.427
X17.513 Y21.835
X17.032 Y22.232
X16.542 Y22.619
X16.044 Y22.994
X15.537 Y23.358
X15.022 Y23.71
X14.499 Y24.05
X13.968 Y24.378
X13.43 Y24.694
X12.885 Y24.997
X12.333 Y25.288
X11.774 Y25.567
X11.21 Y25.833
X10.639 Y26.086
X10.064 Y26.326
X9.483 Y26.553
X8.897 Y26.768
X8.306 Y26.969
X7.711 Y27.156
X7.112 Y27.33
X6.509 Y27.491
X5.902 Y27.637
X5.292 Y27.77
X4.68 Y27.888
X4.065 Y27.993
X3.448 Y28.085
X2.828 Y28.162
X2.208 Y28.226
X1.586 Y28.276
X0.963 Y28.312
X0.339 Y28.334
X-0.284 Y28.343
X-0.908 Y28.337
X-1.532 Y28.317
X-2.155 Y28.284
X-2.777 Y28.236
X-3.398 Y28.173
X-4.017 Y28.097
X-4.635 Y28.008
X-5.25 Y27.904
X-5.863 Y27.787
X-6.473 Y27.657
X-7.08 Y27.513
X-7.684 Y27.356
X-8.284 Y27.186
X-8.881 Y27.003
X-9.473 Y26.806
X-10.06 Y26.596
X-10.643 Y26.373
X-11.221 Y26.137
X-11.793 Y25.888
X-12.359 Y25.626
X-12.92 Y25.352
X-13.474 Y25.065
X-14.022 Y24.767
X-14.563 Y24.456
X-15.097 Y24.134
X-15.625 Y23.8
X-16.144 Y23.455
X-16.656 Y23.098
X-17.16 Y22.731
X-17.656 Y22.352
X-18.143 Y21.962
X-18.621 Y21.561
X-19.091 Y21.15
X-19.55 Y20.728
X-20.001 Y20.296
X-20.442 Y19.855
X-20.873 Y19.404
X-21.294 Y18.943
X-21.705 Y18.474
X-22.106 Y17.996
X-22.496 Y17.509
X-22.876 Y17.014
X-23.244 Y16.51
X-23.602 Y15.999
X-23.947 Y15.479
X-24.282 Y14.953
X-24.604 Y14.418
X-24.914 Y13.877
X-25.212 Y13.329
X-25.499 Y12.775
X-25.773 Y12.214
X-26.035 Y11.648
X-26.284 Y11.076
X-26.521 Y10.499
X-26.746 Y9.916
X-26.957 Y9.33
X-27.156 Y8.738
X-27.342 Y8.143
X-27.515 Y7.543
X-27.674 Y6.94
X-27.82 Y6.333
X-27.952 Y5.723
X-28.071 Y5.111
X-28.176 Y4.496
X-28.268 Y3.879
X-28.347 Y3.26
X-28.412 Y2.639
X-28.463 Y2.017
X-28.502 Y1.394
X-28.526 Y0.771
X-28.537 Y0.147
X-28.535 Y-0.477
X-28.518 Y-1.101
X-28.488 Y-1.724
X-28.444 Y-2.346
X-28.386 Y-2.967
X-28.315 Y-3.587
X-28.229 Y-4.205
X-28.131 Y-4.821
X-28.019 Y-5.435
X-27.893 Y-6.046
X-27.755 Y-6.655
X-27.603 Y-7.26
X-27.439 Y-7.862
X-27.261 Y-8.46
X-27.07 Y-9.054
X-26.866 Y-9.644
X-26.65 Y-10.229
X-26.42 Y-10.809
X-26.178 Y-11.384
X-25.922 Y-11.953
X-25.654 Y-12.517
X-25.374 Y-13.074
X-25.082 Y-13.626
X-24.779 Y-14.171
X-24.463 Y-14.709
X-24.136 Y-15.24
X-23.797 Y-15.765
X-23.448 Y-16.281
X-23.087 Y-16.79
X-22.715 Y-17.291
X-22.332 Y-17.784
X-21.938 Y-18.268
X-21.534 Y-18.743
X-21.119 Y-19.209
X-20.694 Y-19.666
X-20.259 Y-20.113
X-19.814 Y-20.551
X-19.36 Y-20.979
X-18.897 Y-21.397
X-18.425 Y-21.805
X-17.944 Y-22.203
X-17.455 Y-22.59
X-16.958 Y-22.967
X-16.452 Y-23.332
X-15.938 Y-23.687
X-15.417 Y-24.03
X-14.889 Y-24.361
X-14.353 Y-24.68
X-13.81 Y-24.988
X-13.26 Y-25.283
X-12.704 Y-25.567
X-12.142 Y-25.838
X-11.575 Y-26.097
X-11.002 Y-26.344
X-10.423 Y-26.578
X-9.84 Y-26.8
X-9.252 Y-27.009
X-8.66 Y-27.205
X-8.063 Y-27.388
X-7.463 Y-27.558
X-6.859 Y-27.715
X-6.252 Y-27.858
X-5.642 Y-27.988
X-5.028 Y-28.104
X-4.413 Y-28.206
X-3.796 Y-28.296
X-3.176 Y-28.372
X-2.555 Y-28.434
X-1.933 Y-28.483
X-1.31 Y-28.519
X-0.687 Y-28.541
X-0.063 Y-28.55
X0.561 Y-28.545
X1.185 Y-28.526
X1.808 Y-28.494
X2.43 Y-28.448
X3.051 Y-28.388
X3.67 Y-28.314
X4.288 Y-28.227
X4.904 Y-28.126
X5.517 Y-28.012
X6.128 Y-27.884
X6.736 Y-27.744
X7.341 Y-27.59
X7.942 Y-27.424
X8.54 Y-27.244
X9.133 Y-27.051
X9.722 Y-26.846
X10.307 Y-26.627
X10.886 Y-26.396
X11.461 Y-26.152
X12.029 Y-25.895
X12.592 Y-25.626
X13.149 Y-25.345
X13.7 Y-25.052
X14.244 Y-24.747
X14.782 Y-24.43
X15.313 Y-24.102
X15.836 Y-23.763
X16.353 Y-23.413
X16.862 Y-23.052
X17.363 Y-22.68
X17.856 Y-22.297
X18.34 Y-21.904
X18.816 Y-21.501
X19.284 Y-21.088
X19.742 Y-20.664
X20.191 Y-20.231
X20.631 Y-19.789
X21.062 Y-19.338
X21.484 Y-18.878
X21.896 Y-18.409
X22.298 Y-17.932
X22.69 Y-17.447
X23.072 Y-16.954
X23.444 Y-16.453
X23.806 Y-15.944
X24.157 Y-15.429
X24.497 Y-14.905
X24.826 Y-14.375
X25.144 Y-13.838
X25.451 Y-13.295
X25.746 Y-12.745
X26.029 Y-12.189
X26.302 Y-11.628
X26.562 Y-11.061
X26.811 Y-10.489
X27.048 Y-9.912
X27.273 Y-9.33
X27.486 Y-8.743
X27.687 Y-8.153
X27.875 Y-7.558
X28.051 Y-6.959
X28.214 Y-6.357
X28.364 Y-5.751
X28.501 Y-5.143
X28.625 Y-4.531
X28.736 Y-3.917
X28.834 Y-3.301
X28.92 Y-2.683
X28.992 Y-2.063
X29.051 Y-1.442
X29.097 Y-0.82
X29.13 Y-0.197
X29.15 Y0.427
X29.156 Y1.051
X29.15 Y1.675
X29.13 Y2.299
X29.097 Y2.922
X29.05 Y3.544
X28.989 Y4.165
X28.915 Y4.784
X28.828 Y5.402
X28.728 Y6.018
X28.615 Y6.632
X28.488 Y7.243
X28.349 Y7.851
X28.197 Y8.456
X28.033 Y9.058
X27.855 Y9.656
X27.665 Y10.25
X27.462 Y10.84
X27.246 Y11.426
X27.018 Y12.007
X26.778 Y12.582
X26.524 Y13.152
X26.259 Y13.717
X25.981 Y14.276
X25.692 Y14.829
X25.391 Y15.375
X25.078 Y15.915
X24.755 Y16.449
X24.42 Y16.975
X24.073 Y17.494
X23.716 Y18.006
X23.349 Y18.51
X22.97 Y19.006
X22.581 Y19.494
X22.182 Y19.973
X21.772 Y20.443
X21.352 Y20.905
X20.922 Y21.357
X20.483 Y21.8
X20.034 Y22.234
X19.576 Y22.658
X19.11 Y23.072
X18.635 Y23.477
X18.152 Y23.872
X17.66 Y24.256
X17.16 Y24.63
X16.653 Y24.993
X16.138 Y25.345
X15.616 Y25.686
X15.086 Y26.016
X14.549 Y26.334
X14.006 Y26.641
X13.456 Y26.936
X12.9 Y27.219
X12.339 Y27.491
X11.771 Y27.751
X11.199 Y27.999
X10.621 Y28.235
X10.039 Y28.459
X9.452 Y28.67
X8.861 Y28.87
X8.265 Y29.057
X7.666 Y29.231
X7.064 Y29.392
X6.458 Y29.541
X5.849 Y29.677
X5.237 Y29.799
X4.622 Y29.909
X4.006 Y30.005
X3.388 Y30.089
X2.768 Y30.16
X2.147 Y30.218
X1.524 Y30.264
X0.901 Y30.296
X0.278 Y30.316
X-0.346 Y30.322
X-0.97 Y30.316
X-1.594 Y30.296
X-2.217 Y30.263
X-2.839 Y30.218
X-3.46 Y30.159
X-4.08 Y30.086
X-4.698 Y30.001
X-5.314 Y29.903
X-5.928 Y29.792
X-6.54 Y29.669
X-7.149 Y29.533
X-7.755 Y29.385
X-8.358 Y29.224
X-8.957 Y29.051
X-9.553 Y28.866
X-10.145 Y28.668
X-10.733 Y28.458
X-11.316 Y28.236
X-11.894 Y28.002
X-12.467 Y27.755
X-13.035 Y27.497
X-13.597 Y27.227
X-14.154 Y26.945
X-14.705 Y26.652
X-15.249 Y26.347
X-15.788 Y26.032
X-16.32 Y25.705
X-16.845 Y25.368
X-17.363 Y25.02
X-17.873 Y24.662
X-18.377 Y24.293
X-18.872 Y23.914
X-19.36 Y23.525
X-19.839 Y23.125
X-20.31 Y22.716
X-20.772 Y22.297
X-21.226 Y21.868
X-21.67 Y21.43
X-22.105 Y20.983
X-22.531 Y20.527
X-22.948 Y20.063
X-23.355 Y19.59
X-23.753 Y19.109
X-24.14 Y18.62
X-24.518 Y18.123
X-24.885 Y17.619
X-25.242 Y17.107
X-25.588 Y16.588
X-25.924 Y16.062
X-26.248 Y15.529
X-26.561 Y14.989
X-26.863 Y14.443
X-27.153 Y13.891
X-27.432 Y13.333
X-27.7 Y12.769
X-27.956 Y12.2
X-28.2 Y11.626
X-28.433 Y11.047
X-28.654 Y10.464
X-28.863 Y9.876
X-29.061 Y9.284
X-29.246 Y8.688
X-29.418 Y8.088
X-29.579 Y7.485
X-29.726 Y6.879
X-29.861 Y6.27
X-29.984 Y5.658
X-30.093 Y5.044
X-30.19 Y4.428
X-30.275 Y3.809
X-30.347 Y3.19
X-30.406 Y2.569
X-30.453 Y1.946
X-30.487 Y1.323
X-30.509 Y0.7
X-30.517 Y0.076
X-30.514 Y-0.548
X-30.497 Y-1.172
X-30.468 Y-1.795
X-30.425 Y-2.417
X-30.37 Y-3.039
X-30.302 Y-3.659
X-30.22 Y-4.278
X-30.127 Y-4.895
X-30.02 Y-5.509
X-29.901 Y-6.122
X-29.77 Y-6.732
X-29.626 Y-7.339
X-29.471 Y-7.943
X-29.303 Y-8.544
X-29.122 Y-9.142
X-28.93 Y-9.735
X-28.726 Y-10.325
X-28.509 Y-10.91
X-28.281 Y-11.49
X-28.04 Y-12.066
X-27.788 Y-12.637
X-27.523 Y-13.202
X-27.248 Y-13.762
X-26.96 Y-14.316
X-26.662 Y-14.863
X-26.352 Y-15.405
X-26.032 Y-15.941
X-25.701 Y-16.47
X-25.359 Y-16.992
X-25.007 Y-17.507
X-24.644 Y-18.014
X-24.272 Y-18.515
X-23.888 Y-19.007
X-23.495 Y-19.492
X-23.092 Y-19.968
X-22.68 Y-20.436
X-22.257 Y-20.895
X-21.825 Y-21.345
X-21.384 Y-21.787
X-20.934 Y-22.219
X-20.476 Y-22.642
X-20.009 Y-23.056
X-19.533 Y-23.46
X-19.05 Y-23.855
X-18.559 Y-24.239
X-18.06 Y-24.614
X-17.553 Y-24.978
X-17.039 Y-25.332
X-16.518 Y-25.676
X-15.99 Y-26.008
X-15.456 Y-26.33
X-14.914 Y-26.64
X-14.367 Y-26.939
X-13.813 Y-27.226
X-13.253 Y-27.503
X-12.688 Y-27.767
X-12.118 Y-28.021
X-11.543 Y-28.262
X-10.963 Y-28.493
X-10.379 Y-28.711
X-9.79 Y-28.917
X-9.197 Y-29.112
X-8.6 Y-29.294
X-8. Y-29.464
X-7.396 Y-29.622
X-6.789 Y-29.767
X-6.18 Y-29.899
X-5.567 Y-30.019
X-4.953 Y-30.126
X-4.336 Y-30.22
X-3.717 Y-30.302
X-3.097 Y-30.372
X-2.476 Y-30.428
X-1.853 Y-30.473
X-1.23 Y-30.504
X-0.607 Y-30.524
X0.017 Y-30.53
X0.641 Y-30.524
X1.265 Y-30.505
X1.888 Y-30.473
X2.51 Y-30.428
X3.132 Y-30.371
X3.752 Y-30.3
X4.37 Y-30.217
X4.986 Y-30.121
X5.601 Y-30.012
X6.213 Y-29.891
X6.822 Y-29.758
X7.429 Y-29.612
X8.033 Y-29.455
X8.633 Y-29.285
X9.23 Y-29.102
X9.823 Y-28.908
X10.412 Y-28.702
X10.996 Y-28.484
X11.576 Y-28.254
X12.151 Y-28.012
X12.721 Y-27.758
X13.286 Y-27.492
X13.845 Y-27.214
X14.398 Y-26.926
X14.945 Y-26.626
X15.486 Y-26.315
X16.021 Y-25.994
X16.549 Y-25.662
X17.071 Y-25.32
X17.586 Y-24.967
X18.093 Y-24.604
X18.594 Y-24.232
X19.086 Y-23.849
X19.571 Y-23.456
X20.049 Y-23.054
X20.517 Y-22.643
X20.978 Y-22.222
X21.43 Y-21.791
X21.873 Y-21.352
X22.308 Y-20.905
X22.734 Y-20.449
X23.151 Y-19.984
X23.559 Y-19.512
X23.957 Y-19.032
X24.347 Y-18.545
X24.727 Y-18.05
X25.097 Y-17.548
X25.458 Y-17.039
X25.808 Y-16.523
X26.149 Y-16.
X26.479 Y-15.47
X26.799 Y-14.935
X27.108 Y-14.393
X27.406 Y-13.845
X27.694 Y-13.291
X27.97 Y-12.732
X28.236 Y-12.167
X28.491 Y-11.598
X28.735 Y-11.023
X28.968 Y-10.444
X29.189 Y-9.861
X29.399 Y-9.273
X29.598 Y-8.682
X29.785 Y-8.087
X29.96 Y-7.488
X30.123 Y-6.886
X30.275 Y-6.28
X30.414 Y-5.672
X30.541 Y-5.061
X30.655 Y-4.448
X30.758 Y-3.832
X30.848 Y-3.215
X30.926 Y-2.596
X30.992 Y-1.975
X31.045 Y-1.354
X31.086 Y-0.731
X31.115 Y-0.108
X31.132 Y0.516
X31.137 Y1.14
X31.129 Y1.764
X31.108 Y2.387
X31.076 Y3.01
X31.03 Y3.633
X30.972 Y4.254
X30.901 Y4.874
X30.818 Y5.492
X30.722 Y6.109
X30.614 Y6.723
X30.494 Y7.335
X30.361 Y7.945
X30.217 Y8.552
X30.06 Y9.156
X29.892 Y9.757
X29.712 Y10.354
X29.52 Y10.948
X29.316 Y11.538
X29.1 Y12.123
X28.873 Y12.704
X28.634 Y13.28
X28.383 Y13.852
X28.12 Y14.418
X27.846 Y14.978
X27.561 Y15.533
X27.265 Y16.082
X26.958 Y16.626
X26.64 Y17.163
X26.312 Y17.693
X25.973 Y18.217
X25.624 Y18.734
X25.265 Y19.245
X24.896 Y19.748
X24.517 Y20.243
X24.128 Y20.731
X23.729 Y21.211
X23.32 Y21.683
X22.903 Y22.146
X22.475 Y22.601
X22.039 Y23.047
X21.594 Y23.484
X21.14 Y23.912
X20.678 Y24.331
X20.208 Y24.741
X19.729 Y25.142
X19.243 Y25.533
X18.75 Y25.915
X18.249 Y26.287
X17.74 Y26.649
X17.225 Y27.
X16.703 Y27.342
X16.174 Y27.673
X15.638 Y27.993
X15.096 Y28.302
X14.548 Y28.6
X13.994 Y28.887
X13.435 Y29.163
X12.87 Y29.429
X12.3 Y29.682
X11.725 Y29.925
X11.146 Y30.157
X10.562 Y30.377
X9.974 Y30.586
X9.382 Y30.783
X8.786 Y30.968
X8.187 Y31.142
X7.584 Y31.304
X6.979 Y31.453
X6.37 Y31.591
X5.759 Y31.717
X5.145 Y31.83
X4.53 Y31.93
X3.912 Y32.019
X3.293 Y32.096
X2.672 Y32.16
X2.05 Y32.213
X1.428 Y32.254
X0.804 Y32.282
X0.181 Y32.298
X-0.443 Y32.303
X-1.067 Y32.295
X-1.691 Y32.275
X-2.314 Y32.242
X-2.936 Y32.197
X-3.557 Y32.141
X-4.178 Y32.071
X-4.796 Y31.99
X-5.413 Y31.896
X-6.028 Y31.79
X-6.641 Y31.672
X-7.251 Y31.542
X-7.859 Y31.401
X-8.464 Y31.248
X-9.065 Y31.083
X-9.664 Y30.907
X-10.259 Y30.719
X-10.85 Y30.52
X-11.438 Y30.31
X-12.021 Y30.088
X-12.599 Y29.854
X-13.173 Y29.609
X-13.742 Y29.354
X-14.306 Y29.086
X-14.865 Y28.808
X-15.418 Y28.519
X-15.965 Y28.219
X-16.506 Y27.909
X-17.042 Y27.589
X-17.571 Y27.258
X-18.093 Y26.917
X-18.61 Y26.567
X-19.119 Y26.206
X-19.621 Y25.836
X-20.116 Y25.456
X-20.604 Y25.067
X-21.083 Y24.668
X-21.555 Y24.26
X-22.019 Y23.842
X-22.475 Y23.416
X-22.922 Y22.981
X-23.36 Y22.537
X-23.79 Y22.085
X-24.211 Y21.624
X-24.624 Y21.156
X-25.027 Y20.68
X-25.421 Y20.196
X-25.806 Y19.705
X-26.181 Y19.206
X-26.547 Y18.701
X-26.903 Y18.188
X-27.248 Y17.669
X-27.584 Y17.143
X-27.91 Y16.611
X-28.225 Y16.072
X-28.529 Y15.528
X-28.823 Y14.977
X-29.106 Y14.421
X-29.378 Y13.859
X-29.639 Y13.293
X-29.889 Y12.721
X-30.129 Y12.145
X-30.357 Y11.565
X-30.575 Y10.98
X-30.781 Y10.391
X-30.976 Y9.798
X-31.16 Y9.202
X-31.332 Y8.602
X-31.492 Y7.999
X-31.641 Y7.393
X-31.778 Y6.784
X-31.903 Y6.173
X-32.016 Y5.56
X-32.117 Y4.944
X-32.206 Y4.326
X-32.283 Y3.707
X-32.349 Y3.087
X-32.402 Y2.465
X-32.444 Y1.842
X-32.474 Y1.219
X-32.492 Y0.596
X-32.499 Y-0.028
X-32.493 Y-0.652
X-32.476 Y-1.276
X-32.446 Y-1.899
X-32.404 Y-2.522
X-32.351 Y-3.143
X-32.285 Y-3.764
X-32.207 Y-4.383
X-32.117 Y-5.
X-32.015 Y-5.616
X-31.901 Y-6.229
X-31.775 Y-6.841
X-31.638 Y-7.449
X-31.489 Y-8.055
X-31.329 Y-8.658
X-31.158 Y-9.258
X-30.975 Y-9.855
X-30.78 Y-10.448
X-30.575 Y-11.037
X-30.358 Y-11.622
X-30.13 Y-12.202
X-29.891 Y-12.779
X-29.64 Y-13.35
X-29.378 Y-13.917
X-29.106 Y-14.478
X-28.822 Y-15.034
X-28.528 Y-15.584
X-28.223 Y-16.128
X-27.908 Y-16.667
X-27.583 Y-17.2
X-27.248 Y-17.726
X-26.903 Y-18.246
X-26.548 Y-18.759
X-26.184 Y-19.265
X-25.81 Y-19.765
X-25.426 Y-20.257
X-25.033 Y-20.741
X-24.631 Y-21.218
X-24.219 Y-21.687
X-23.799 Y-22.148
X-23.369 Y-22.601
X-22.931 Y-23.045
X-22.484 Y-23.48
X-22.029 Y-23.907
X-21.566 Y-24.326
X-21.095 Y-24.735
X-20.617 Y-25.135
X-20.131 Y-25.526
X-19.637 Y-25.908
X-19.137 Y-26.281
X-18.629 Y-26.644
X-18.114 Y-26.997
X-17.593 Y-27.34
X-17.066 Y-27.673
X-16.532 Y-27.996
X-15.992 Y-28.308
X-15.445 Y-28.609
X-14.893 Y-28.9
X-14.336 Y-29.18
X-13.773 Y-29.449
X-13.205 Y-29.708
X-12.632 Y-29.956
X-12.055 Y-30.193
X-11.473 Y-30.418
X-10.888 Y-30.633
X-10.298 Y-30.837
X-9.704 Y-31.029
X-9.107 Y-31.21
X-8.507 Y-31.379
X-7.903 Y-31.537
X-7.296 Y-31.683
X-6.687 Y-31.818
X-6.075 Y-31.94
X-5.461 Y-32.051
X-4.845 Y-32.149
X-4.227 Y-32.235
X-3.608 Y-32.31
X-2.987 Y-32.373
X-2.365 Y-32.424
X-1.742 Y-32.464
X-1.119 Y-32.491
X-0.495 Y-32.507
X0.129 Y-32.511
X0.753 Y-32.503
X1.376 Y-32.483
X1.999 Y-32.451
X2.622 Y-32.407
X3.243 Y-32.351
X3.863 Y-32.283
X4.482 Y-32.203
X5.099 Y-32.111
X5.714 Y-32.006
X6.328 Y-31.89
X6.938 Y-31.763
X7.546 Y-31.624
X8.152 Y-31.473
X8.754 Y-31.311
X9.354 Y-31.137
X9.95 Y-30.952
X10.542 Y-30.756
X11.131 Y-30.549
X11.715 Y-30.33
X12.295 Y-30.1
X12.87 Y-29.859
X13.441 Y-29.607
X14.007 Y-29.344
X14.567 Y-29.07
X15.122 Y-28.785
X15.672 Y-28.489
X16.216 Y-28.184
X16.754 Y-27.868
X17.286 Y-27.542
X17.812 Y-27.206
X18.331 Y-26.86
X18.844 Y-26.505
X19.35 Y-26.14
X19.85 Y-25.766
X20.342 Y-25.382
X20.827 Y-24.99
X21.304 Y-24.588
X21.774 Y-24.178
X22.236 Y-23.758
X22.69 Y-23.33
X23.136 Y-22.894
X23.574 Y-22.449
X24.003 Y-21.996
X24.424 Y-21.536
X24.836 Y-21.068
X25.24 Y-20.592
X25.636 Y-20.109
X26.022 Y-19.62
X26.4 Y-19.123
X26.768 Y-18.619
X27.127 Y-18.109
X27.477 Y-17.592
X27.818 Y-17.07
X28.148 Y-16.54
X28.469 Y-16.005
X28.78 Y-15.464
X29.081 Y-14.918
X29.371 Y-14.366
X29.652 Y-13.808
X29.922 Y-13.245
X30.181 Y-12.678
X30.43 Y-12.106
X30.669 Y-11.53
X30.897 Y-10.949
X31.115 Y-10.364
X31.322 Y-9.776
X31.518 Y-9.183
X31.704 Y-8.587
X31.878 Y-7.988
X32.041 Y-7.386
X32.193 Y-6.781
X32.333 Y-6.173
X32.462 Y-5.563
X32.58 Y-4.95
X32.685 Y-4.335
X32.779 Y-3.718
X32.862 Y-3.1
X32.933 Y-2.48
X32.993 Y-1.859
X33.041 Y-1.236
X33.077 Y-0.614
X33.102 Y0.01
X33.116 Y0.634
X33.118 Y1.258
X33.108 Y1.881
X33.087 Y2.505
X33.054 Y3.128
X33.009 Y3.75
X32.952 Y4.372
X32.884 Y4.992
X32.803 Y5.611
X32.711 Y6.228
X32.607 Y6.843
X32.492 Y7.456
X32.365 Y8.067
X32.226 Y8.676
X32.077 Y9.281
X31.916 Y9.884
X31.744 Y10.484
X31.561 Y11.08
X31.366 Y11.673
X31.161 Y12.262
X30.945 Y12.848
X30.717 Y13.429
X30.479 Y14.005
X30.229 Y14.577
X29.969 Y15.144
X29.698 Y15.706
X29.416 Y16.263
X29.124 Y16.814
X28.821 Y17.36
X28.509 Y17.9
X28.186 Y18.434
X27.853 Y18.962
X27.511 Y19.483
X27.159 Y19.999
X26.798 Y20.507
X26.427 Y21.009
X26.046 Y21.504
X25.657 Y21.991
X25.258 Y22.471
X24.851 Y22.944
X24.434 Y23.408
X24.009 Y23.865
X23.575 Y24.313
X23.133 Y24.753
X22.682 Y25.185
X22.223 Y25.608
X21.757 Y26.022
X21.283 Y26.428
X20.802 Y26.825
X20.313 Y27.213
X19.817 Y27.592
X19.315 Y27.962
X18.805 Y28.322
X18.289 Y28.673
X17.767 Y29.014
X17.238 Y29.345
X16.703 Y29.666
X16.162 Y29.977
X15.616 Y30.278
X15.063 Y30.568
X14.505 Y30.847
X13.943 Y31.117
X13.375 Y31.375
X12.802 Y31.624
X12.225 Y31.861
X11.644 Y32.088
X11.059 Y32.305
X10.47 Y32.51
X9.877 Y32.705
X9.281 Y32.889
X8.681 Y33.061
X8.079 Y33.223
X7.473 Y33.373
X6.865 Y33.512
X6.254 Y33.639
X5.641 Y33.755
X5.026 Y33.86
X4.409 Y33.952
X3.79 Y34.033
X3.17 Y34.103
X2.549 Y34.162
X1.927 Y34.209
X1.304 Y34.245
X0.68 Y34.269
X0.056 Y34.282
X-0.568 Y34.284
X-1.191 Y34.274
X-1.815 Y34.253
X-2.438 Y34.22
X-3.06 Y34.176
X-3.682 Y34.12
X-4.302 Y34.053
X-4.921 Y33.974
X-5.538 Y33.883
X-6.154 Y33.781
X-6.768 Y33.668
X-7.379 Y33.543
X-7.988 Y33.408
X-8.594 Y33.261
X-9.198 Y33.103
X-9.799 Y32.935
X-10.396 Y32.755
X-10.991 Y32.565
X-11.581 Y32.364
X-12.168 Y32.152
X-12.751 Y31.93
X-13.33 Y31.697
X-13.904 Y31.453
X-14.474 Y31.199
X-15.039 Y30.934
X-15.599 Y30.659
X-16.154 Y30.373
X-16.703 Y30.077
X-17.247 Y29.771
X-17.785 Y29.456
X-18.318 Y29.13
X-18.844 Y28.796
X-19.365 Y28.452
X-19.879 Y28.098
X-20.386 Y27.735
X-20.887 Y27.363
X-21.382 Y26.982
X-21.869 Y26.593
X-22.349 Y26.194
X-22.821 Y25.786
X-23.286 Y25.37
X-23.743 Y24.946
X-24.193 Y24.513
X-24.634 Y24.071
X-25.066 Y23.622
X-25.491 Y23.165
X-25.907 Y22.7
X-26.315 Y22.228
X-26.715 Y21.749
X-27.105 Y21.262
X-27.487 Y20.769
X-27.86 Y20.268
X-28.224 Y19.762
X-28.579 Y19.248
X-28.924 Y18.728
X-29.26 Y18.203
X-29.586 Y17.671
X-29.902 Y17.133
X-30.208 Y16.589
X-30.504 Y16.04
X-30.79 Y15.485
X-31.066 Y14.926
X-31.331 Y14.361
X-31.587 Y13.792
X-31.832 Y13.218
X-32.066 Y12.64
X-32.29 Y12.057
X-32.504 Y11.471
X-32.708 Y10.881
X-32.9 Y10.288
X-33.082 Y9.691
X-33.253 Y9.091
X-33.413 Y8.488
X-33.562 Y7.882
X-33.701 Y7.274
X-33.827 Y6.663
X-33.943 Y6.049
X-34.047 Y5.434
X-34.14 Y4.817
X-34.222 Y4.199
X-34.292 Y3.579
X-34.351 Y2.958
X-34.4 Y2.336
X-34.437 Y1.713
X-34.463 Y1.089
X-34.477 Y0.466
X-34.481 Y-0.158
X-34.473 Y-0.782
X-34.454 Y-1.406
X-34.424 Y-2.029
X-34.383 Y-2.652
X-34.33 Y-3.273
X-34.266 Y-3.894
X-34.19 Y-4.513
X-34.103 Y-5.131
X-34.004 Y-5.747
X-33.894 Y-6.362
X-33.773 Y-6.974
X-33.642 Y-7.584
X-33.499 Y-8.191
X-33.345 Y-8.796
X-33.181 Y-9.398
X-33.006 Y-9.997
X-32.82 Y-10.592
X-32.624 Y-11.184
X-32.417 Y-11.773
X-32.199 Y-12.358
X-31.971 Y-12.938
X-31.732 Y-13.515
X-31.483 Y-14.087
X-31.223 Y-14.654
X-30.953 Y-15.217
X-30.672 Y-15.774
X-30.381 Y-16.326
X-30.081 Y-16.873
X-29.77 Y-17.414
X-29.45 Y-17.949
X-29.121 Y-18.479
X-28.781 Y-19.003
X-28.433 Y-19.521
X-28.076 Y-20.032
X-27.709 Y-20.537
X-27.333 Y-21.035
X-26.949 Y-21.527
X-26.556 Y-22.011
X-26.153 Y-22.488
X-25.743 Y-22.958
X-25.324 Y-23.42
X-24.896 Y-23.874
X-24.46 Y-24.32
X-24.016 Y-24.759
X-23.564 Y-25.189
X-23.104 Y-25.61
X-22.637 Y-26.024
X-22.162 Y-26.429
X-21.68 Y-26.826
X-21.192 Y-27.214
X-20.696 Y-27.593
X-20.194 Y-27.963
X-19.685 Y-28.324
X-19.17 Y-28.676
X-18.648 Y-29.018
X-18.121 Y-29.351
X-17.587 Y-29.675
X-17.047 Y-29.988
X-16.502 Y-30.292
X-15.952 Y-30.585
X-15.396 Y-30.868
X-14.835 Y-31.141
X-14.269 Y-31.404
X-13.698 Y-31.657
X-13.123 Y-31.899
X-12.544 Y-32.131
X-11.961 Y-32.353
X-11.374 Y-32.564
X-10.783 Y-32.764
X-10.188 Y-32.954
X-9.591 Y-33.134
X-8.99 Y-33.302
X-8.386 Y-33.46
X-7.78 Y-33.606
X-7.171 Y-33.742
X-6.559 Y-33.866
X-5.946 Y-33.979
X-5.33 Y-34.081
X-4.713 Y-34.171
X-4.094 Y-34.25
X-3.474 Y-34.318
X-2.852 Y-34.375
X-2.23 Y-34.421
X-1.607 Y-34.455
X-0.984 Y-34.479
X-0.36 Y-34.491
X0.264 Y-34.493
X0.888 Y-34.483
X1.512 Y-34.461
X2.135 Y-34.429
X2.757 Y-34.385
X3.379 Y-34.33
X3.999 Y-34.264
X4.618 Y-34.186
X5.236 Y-34.097
X5.851 Y-33.996
X6.465 Y-33.884
X7.077 Y-33.761
X7.686 Y-33.627
X8.293 Y-33.482
X8.898 Y-33.327
X9.499 Y-33.16
X10.097 Y-32.983
X10.692 Y-32.796
X11.284 Y-32.597
X11.872 Y-32.388
X12.456 Y-32.169
X13.036 Y-31.939
X13.612 Y-31.699
X14.183 Y-31.448
X14.75 Y-31.186
X15.311 Y-30.915
X15.868 Y-30.633
X16.419 Y-30.341
X16.965 Y-30.039
X17.506 Y-29.727
X18.041 Y-29.406
X18.57 Y-29.076
X19.093 Y-28.736
X19.611 Y-28.387
X20.122 Y-28.029
X20.626 Y-27.662
X21.125 Y-27.287
X21.616 Y-26.902
X22.101 Y-26.509
X22.578 Y-26.108
X23.049 Y-25.698
X23.512 Y-25.28
X23.967 Y-24.853
X24.415 Y-24.419
X24.855 Y-23.976
X25.287 Y-23.526
X25.712 Y-23.069
X26.128 Y-22.604
X26.536 Y-22.132
X26.936 Y-21.654
X27.328 Y-21.168
X27.712 Y-20.676
X28.087 Y-20.177
X28.453 Y-19.672
X28.811 Y-19.161
X29.16 Y-18.644
X29.5 Y-18.12
X29.83 Y-17.591
X30.152 Y-17.057
X30.464 Y-16.516
X30.767 Y-15.971
X31.06 Y-15.42
X31.343 Y-14.864
X31.616 Y-14.303
X31.879 Y-13.737
X32.133 Y-13.167
X32.377 Y-12.593
X32.611 Y-12.014
X32.835 Y-11.432
X33.049 Y-10.846
X33.253 Y-10.256
X33.447 Y-9.663
X33.63 Y-9.067
X33.803 Y-8.467
X33.965 Y-7.865
X34.117 Y-7.26
X34.258 Y-6.652
X34.389 Y-6.042
X34.508 Y-5.429
X34.616 Y-4.815
X34.714 Y-4.199
X34.8 Y-3.581
X34.875 Y-2.961
X34.94 Y-2.341
X34.994 Y-1.719
X35.037 Y-1.097
X35.069 Y-0.473
X35.09 Y0.15
X35.1 Y0.774
X35.099 Y1.398
X35.088 Y2.022
X35.065 Y2.645
X35.031 Y3.268
X34.987 Y3.891
X34.931 Y4.512
X34.864 Y5.133
X34.786 Y5.752
X34.696 Y6.369
X34.596 Y6.985
X34.484 Y7.599
X34.362 Y8.211
X34.228 Y8.82
X34.085 Y9.427
X33.93 Y10.032
X33.765 Y10.633
X33.589 Y11.232
X33.403 Y11.828
X33.206 Y12.42
X32.999 Y13.008
X32.782 Y13.593
X32.554 Y14.174
X32.316 Y14.751
X32.068 Y15.323
X31.809 Y15.891
X31.54 Y16.454
X31.261 Y17.012
X30.972 Y17.565
X30.673 Y18.113
X30.365 Y18.655
X30.047 Y19.192
X29.719 Y19.723
X29.382 Y20.248
X29.036 Y20.768
X28.682 Y21.281
X28.318 Y21.788
X27.945 Y22.288
X27.564 Y22.782
X27.173 Y23.269
X26.775 Y23.749
X26.368 Y24.221
X25.952 Y24.687
X25.528 Y25.145
X25.096 Y25.595
X24.656 Y26.037
X24.208 Y26.471
X23.752 Y26.898
X23.289 Y27.316
X22.819 Y27.726
X22.341 Y28.127
X21.857 Y28.521
X21.366 Y28.906
X20.868 Y29.282
X20.364 Y29.649
X19.853 Y30.008
X19.336 Y30.357
X18.813 Y30.698
X18.285 Y31.029
X17.75 Y31.351
X17.21 Y31.663
X16.664 Y31.965
X16.113 Y32.258
X15.557 Y32.541
X14.996 Y32.813
X14.43 Y33.076
X13.859 Y33.329
X13.284 Y33.571
X12.705 Y33.804
X12.123 Y34.027
X11.536 Y34.24
X10.946 Y34.442
X10.352 Y34.634
X9.755 Y34.816
X9.155 Y34.987
X8.553 Y35.148
X7.947 Y35.299
X7.339 Y35.438
X6.728 Y35.567
X6.116 Y35.685
X5.501 Y35.792
X4.884 Y35.888
X4.266 Y35.973
X3.647 Y36.047
X3.026 Y36.11
X2.404 Y36.163
X1.782 Y36.205
X1.159 Y36.236
X0.535 Y36.257
X-0.089 Y36.267
X-0.713 Y36.266
X-1.337 Y36.254
X-1.96 Y36.231
X-2.583 Y36.198
X-3.206 Y36.154
X-3.827 Y36.099
X-4.448 Y36.033
X-5.067 Y35.956
X-5.684 Y35.868
X-6.3 Y35.769
X-6.915 Y35.659
X-7.527 Y35.539
X-8.137 Y35.408
X-8.745 Y35.267
X-9.35 Y35.115
X-9.952 Y34.953
X-10.552 Y34.78
X-11.149 Y34.598
X-11.742 Y34.405
X-12.332 Y34.202
X-12.919 Y33.989
X-13.501 Y33.766
X-14.08 Y33.533
X-14.655 Y33.29
X-15.225 Y33.037
X-15.791 Y32.773
X-16.352 Y32.5
X-16.908 Y32.217
X-17.459 Y31.925
X-18.005 Y31.623
X-18.545 Y31.311
X-19.081 Y30.99
X-19.61 Y30.661
X-20.134 Y30.322
X-20.652 Y29.974
X-21.165 Y29.618
X-21.671 Y29.253
X-22.17 Y28.879
X-22.664 Y28.497
X-23.15 Y28.106
X-23.63 Y27.708
X-24.103 Y27.301
X-24.568 Y26.885
X-25.027 Y26.462
X-25.478 Y26.031
X-25.921 Y25.591
X-26.356 Y25.144
X-26.784 Y24.69
X-27.204 Y24.228
X-27.615 Y23.76
X-28.019 Y23.284
X-28.415 Y22.801
X-28.802 Y22.312
X-29.181 Y21.817
X-29.552 Y21.315
X-29.914 Y20.806
X-30.267 Y20.292
X-30.611 Y19.772
X-30.946 Y19.246
X-31.273 Y18.714
X-31.59 Y18.176
X-31.897 Y17.634
X-32.196 Y17.085
X-32.484 Y16.532
X-32.763 Y15.974
X-33.031 Y15.411
X-33.291 Y14.843
X-33.54 Y14.271
X-33.78 Y13.695
X-34.01 Y13.115
X-34.23 Y12.531
X-34.44 Y11.944
X-34.641 Y11.353
X-34.831 Y10.759
X-35.011 Y10.161
X-35.181 Y9.561
X-35.34 Y8.958
X-35.489 Y8.352
X-35.628 Y7.744
X-35.756 Y7.133
X-35.874 Y6.52
X-35.981 Y5.906
X-36.076 Y5.289
X-36.162 Y4.671
X-36.236 Y4.051
X-36.3 Y3.431
X-36.354 Y2.809
X-36.397 Y2.187
X-36.429 Y1.564
X-36.451 Y0.94
X-36.462 Y0.316
X-36.463 Y-0.308
X-36.453 Y-0.932
X-36.433 Y-1.555
X-36.402 Y-2.178
X-36.36 Y-2.801
X-36.308 Y-3.423
X-36.245 Y-4.043
X-36.171 Y-4.663
X-36.086 Y-5.281
X-35.99 Y-5.898
X-35.884 Y-6.513
X-35.767 Y-7.125
X-35.64 Y-7.736
X-35.502 Y-8.345
X-35.354 Y-8.951
X-35.196 Y-9.554
X-35.027 Y-10.155
X-34.849 Y-10.753
X-34.66 Y-11.348
X-34.461 Y-11.939
X-34.252 Y-12.527
X-34.034 Y-13.112
X-33.805 Y-13.692
X-33.566 Y-14.269
X-33.318 Y-14.841
X-33.06 Y-15.409
X-32.791 Y-15.972
X-32.513 Y-16.531
X-32.225 Y-17.084
X-31.928 Y-17.633
X-31.621 Y-18.176
X-31.306 Y-18.714
X-30.981 Y-19.247
X-30.647 Y-19.774
X-30.304 Y-20.296
X-29.952 Y-20.811
X-29.592 Y-21.321
X-29.224 Y-21.824
X-28.846 Y-22.321
X-28.461 Y-22.811
X-28.067 Y-23.295
X-27.665 Y-23.772
X-27.255 Y-24.243
X-26.836 Y-24.705
X-26.41 Y-25.161
X-25.976 Y-25.609
X-25.534 Y-26.05
X-25.084 Y-26.482
X-24.627 Y-26.907
X-24.163 Y-27.324
X-23.692 Y-27.733
X-23.214 Y-28.134
X-22.729 Y-28.527
X-22.238 Y-28.912
X-21.74 Y-29.288
X-21.236 Y-29.656
X-20.726 Y-30.015
X-20.21 Y-30.366
X-19.688 Y-30.708
X-19.16 Y-31.04
X-18.627 Y-31.364
X-18.088 Y-31.678
X-17.543 Y-31.983
X-16.994 Y-32.279
X-16.439 Y-32.565
X-15.88 Y-32.84
X-15.315 Y-33.107
X-14.747 Y-33.363
X-14.174 Y-33.61
X-13.597 Y-33.848
X-13.016 Y-34.075
X-12.431 Y-34.293
X-11.842 Y-34.5
X-11.251 Y-34.698
X-10.656 Y-34.886
X-10.057 Y-35.063
X-9.456 Y-35.231
X-8.852 Y-35.388
X-8.246 Y-35.534
X-7.637 Y-35.671
X-7.026 Y-35.796
X-6.413 Y-35.911
X-5.798 Y-36.016
X-5.181 Y-36.109
X-4.562 Y-36.192
X-3.942 Y-36.264
X-3.322 Y-36.326
X-2.7 Y-36.377
X-2.077 Y-36.417
X-1.454 Y-36.447
X-0.83 Y-36.467
X-0.206 Y-36.476
X0.418 Y-36.474
X1.041 Y-36.462
X1.665 Y-36.44
X2.288 Y-36.406
X2.91 Y-36.363
X3.532 Y-36.308
X4.152 Y-36.243
X4.772 Y-36.167
X5.39 Y-36.08
X6.006 Y-35.982
X6.62 Y-35.874
X7.233 Y-35.755
X7.843 Y-35.625
X8.451 Y-35.485
X9.057 Y-35.335
X9.66 Y-35.175
X10.26 Y-35.005
X10.858 Y-34.824
X11.452 Y-34.634
X12.042 Y-34.433
X12.63 Y-34.223
X13.214 Y-34.002
X13.793 Y-33.772
X14.369 Y-33.532
X14.941 Y-33.282
X15.508 Y-33.022
X16.071 Y-32.752
X16.629 Y-32.473
X17.182 Y-32.183
X17.729 Y-31.885
X18.272 Y-31.577
X18.81 Y-31.26
X19.342 Y-30.934
X19.868 Y-30.6
X20.389 Y-30.256
X20.904 Y-29.904
X21.414 Y-29.544
X21.917 Y-29.175
X22.414 Y-28.797
X22.904 Y-28.412
X23.388 Y-28.018
X23.866 Y-27.617
X24.337 Y-27.207
X24.801 Y-26.79
X25.257 Y-26.365
X25.707 Y-25.932
X26.149 Y-25.492
X26.583 Y-25.044
X27.01 Y-24.589
X27.43 Y-24.127
X27.842 Y-23.658
X28.246 Y-23.183
X28.642 Y-22.701
X29.031 Y-22.213
X29.411 Y-21.719
X29.784 Y-21.218
X30.148 Y-20.711
X30.504 Y-20.199
X30.852 Y-19.681
X31.191 Y-19.157
X31.522 Y-18.628
X31.844 Y-18.094
X32.157 Y-17.554
X32.461 Y-17.009
X32.756 Y-16.459
X33.041 Y-15.904
X33.317 Y-15.345
X33.584 Y-14.781
X33.842 Y-14.212
X34.09 Y-13.64
X34.329 Y-13.064
X34.558 Y-12.483
X34.778 Y-11.899
X34.988 Y-11.312
X35.189 Y-10.721
X35.38 Y-10.127
X35.562 Y-9.53
X35.733 Y-8.93
X35.895 Y-8.328
X36.046 Y-7.722
X36.188 Y-7.115
X36.319 Y-6.505
X36.44 Y-5.893
X36.55 Y-5.279
X36.65 Y-4.663
X36.74 Y-4.045
X36.819 Y-3.426
X36.888 Y-2.806
X36.946 Y-2.185
X36.995 Y-1.563
X37.032 Y-0.94
X37.06 Y-0.317
X37.077 Y0.307
X37.085 Y0.931
X37.081 Y1.555
X37.068 Y2.179
X37.044 Y2.802
X37.009 Y3.425
X36.964 Y4.047
X36.909 Y4.669
X36.843 Y5.289
X36.766 Y5.909
X36.679 Y6.526
X36.582 Y7.143
X36.473 Y7.757
X36.355 Y8.37
X36.226 Y8.98
X36.087 Y9.588
X35.938 Y10.194
X35.778 Y10.798
X35.609 Y11.398
X35.43 Y11.996
X35.241 Y12.59
X35.042 Y13.182
X34.833 Y13.77
X34.615 Y14.354
X34.386 Y14.935
X34.148 Y15.512
X33.901 Y16.084
X33.643 Y16.653
X33.376 Y17.216
X33.099 Y17.776
X32.813 Y18.33
X32.517 Y18.879
X32.212 Y19.424
X31.898 Y19.963
X31.574 Y20.496
X31.243 Y21.025
X30.902 Y21.548
X30.553 Y22.065
X30.195 Y22.576
X29.829 Y23.081
X29.454 Y23.58
X29.072 Y24.073
X28.681 Y24.559
X28.282 Y25.039
X27.875 Y25.512
X27.46 Y25.978
X27.037 Y26.436
X26.606 Y26.888
X26.168 Y27.332
X25.722 Y27.769
X25.269 Y28.198
X24.809 Y28.619
X24.341 Y29.032
X23.867 Y29.438
X23.387 Y29.836
X22.9 Y30.226
X22.406 Y30.607
X21.906 Y30.981
X21.4 Y31.346
X20.889 Y31.703
X20.371 Y32.051
X19.848 Y32.391
X19.319 Y32.722
X18.784 Y33.044
X18.244 Y33.357
X17.699 Y33.661
X17.149 Y33.955
X16.594 Y34.24
X16.034 Y34.516
X15.47 Y34.782
X14.901 Y35.039
X14.329 Y35.286
X13.752 Y35.524
X13.171 Y35.752
X12.587 Y35.97
X11.999 Y36.18
X11.407 Y36.379
X10.813 Y36.569
X10.216 Y36.748
X9.615 Y36.918
X9.012 Y37.078
X8.407 Y37.228
X7.798 Y37.368
X7.188 Y37.498
X6.576 Y37.618
X5.961 Y37.727
X5.345 Y37.826
X4.728 Y37.914
X4.109 Y37.992
X3.488 Y38.059
X2.867 Y38.117
X2.245 Y38.164
X1.622 Y38.201
X0.999 Y38.228
X0.375 Y38.245
X-0.249 Y38.251
X-0.873 Y38.248
X-1.497 Y38.234
X-2.12 Y38.21
X-2.743 Y38.176
X-3.366 Y38.131
X-3.987 Y38.077
X-4.608 Y38.012
X-5.227 Y37.936
X-5.845 Y37.85
X-6.461 Y37.754
X-7.076 Y37.648
X-7.689 Y37.531
X-8.3 Y37.404
X-8.909 Y37.267
X-9.515 Y37.12
X-10.119 Y36.964
X-10.721 Y36.798
X-11.319 Y36.622
X-11.915 Y36.436
X-12.508 Y36.241
X-13.097 Y36.036
X-13.683 Y35.821
X-14.265 Y35.597
X-14.844 Y35.364
X-15.419 Y35.121
X-15.989 Y34.869
X-16.556 Y34.607
X-17.117 Y34.336
X-17.675 Y34.055
X-18.227 Y33.765
X-18.775 Y33.466
X-19.317 Y33.158
X-19.855 Y32.841
X-20.387 Y32.516
X-20.914 Y32.182
X-21.436 Y31.839
X-21.952 Y31.489
X-22.462 Y31.13
X-22.967 Y30.762
X-23.465 Y30.387
X-23.957 Y30.003
X-24.443 Y29.612
X-24.923 Y29.213
X-25.396 Y28.806
X-25.862 Y28.391
X-26.321 Y27.969
X-26.773 Y27.539
X-27.218 Y27.101
X-27.656 Y26.656
X-28.086 Y26.204
X-28.508 Y25.745
X-28.923 Y25.28
X-29.331 Y24.807
X-29.731 Y24.328
X-30.123 Y23.843
X-30.507 Y23.351
X-30.883 Y22.853
X-31.251 Y22.35
X-31.612 Y21.84
X-31.963 Y21.325
X-32.307 Y20.804
X-32.641 Y20.277
X-32.968 Y19.745
X-33.285 Y19.208
X-33.594 Y18.666
X-33.893 Y18.119
X-34.184 Y17.566
X-34.465 Y17.009
X-34.737 Y16.448
X-35. Y15.882
X-35.253 Y15.312
X-35.497 Y14.738
X-35.732 Y14.159
X-35.958 Y13.578
X-36.174 Y12.992
X-36.381 Y12.404
X-36.578 Y11.812
X-36.766 Y11.217
X-36.944 Y10.619
X-37.112 Y10.018
X-37.271 Y9.415
X-37.42 Y8.809
X-37.559 Y8.201
X-37.688 Y7.59
X-37.807 Y6.978
X-37.916 Y6.363
X-38.015 Y5.747
X-38.103 Y5.129
X-38.181 Y4.51
X-38.249 Y3.89
X-38.307 Y3.269
X-38.356 Y2.647
X-38.394 Y2.024
X-38.422 Y1.401
X-38.44 Y0.777
X-38.448 Y0.153
X-38.446 Y-0.471
X-38.434 Y-1.095
X-38.412 Y-1.718
X-38.38 Y-2.341
X-38.338 Y-2.964
X-38.285 Y-3.585
X-38.223 Y-4.206
X-38.15 Y-4.826
X-38.068 Y-5.444
X-37.974 Y-6.061
X-37.871 Y-6.677
X-37.757 Y-7.29
X-37.634 Y-7.902
X-37.5 Y-8.511
X-37.357 Y-9.119
X-37.204 Y-9.723
X-37.041 Y-10.326
X-36.869 Y-10.926
X-36.687 Y-11.522
X-36.496 Y-12.116
X-36.295 Y-12.707
X-36.085 Y-13.294
X-35.865 Y-13.878
X-35.635 Y-14.459
X-35.397 Y-15.035
X-35.149 Y-15.608
X-34.891 Y-16.176
X-34.625 Y-16.74
X-34.349 Y-17.3
X-34.063 Y-17.855
X-33.769 Y-18.405
X-33.465 Y-18.95
X-33.153 Y-19.49
X-32.832 Y-20.025
X-32.503 Y-20.555
X-32.165 Y-21.079
X-31.819 Y-21.599
X-31.464 Y-22.112
X-31.101 Y-22.62
X-30.731 Y-23.122
X-30.352 Y-23.617
X-29.965 Y-24.107
X-29.571 Y-24.59
X-29.168 Y-25.067
X-28.758 Y-25.538
X-28.341 Y-26.001
X-27.915 Y-26.458
X-27.483 Y-26.907
X-27.042 Y-27.349
X-26.595 Y-27.784
X-26.14 Y-28.212
X-25.679 Y-28.632
X-25.211 Y-29.044
X-24.736 Y-29.449
X-24.255 Y-29.846
X-23.768 Y-30.236
X-23.274 Y-30.617
X-22.774 Y-30.991
X-22.269 Y-31.357
X-21.757 Y-31.714
X-21.24 Y-32.064
X-20.718 Y-32.404
X-20.19 Y-32.737
X-19.656 Y-33.06
X-19.118 Y-33.375
X-18.574 Y-33.681
X-18.025 Y-33.978
X-17.472 Y-34.266
X-16.913 Y-34.545
X-16.35 Y-34.814
X-15.783 Y-35.074
X-15.212 Y-35.325
X-14.637 Y-35.567
X-14.058 Y-35.799
X-13.475 Y-36.023
X-12.889 Y-36.236
X-12.299 Y-36.441
X-11.707 Y-36.636
X-11.111 Y-36.821
X-10.512 Y-36.997
X-9.911 Y-37.163
X-9.307 Y-37.319
X-8.7 Y-37.466
X-8.091 Y-37.602
X-7.481 Y-37.729
X-6.868 Y-37.846
X-6.253 Y-37.952
X-5.636 Y-38.048
X-5.018 Y-38.134
X-4.399 Y-38.21
X-3.779 Y-38.276
X-3.157 Y-38.332
X-2.535 Y-38.377
X-1.912 Y-38.413
X-1.288 Y-38.439
X-0.665 Y-38.455
X-0.041 Y-38.461
X0.583 Y-38.457
X1.207 Y-38.443
X1.83 Y-38.418
X2.453 Y-38.384
X3.076 Y-38.34
X3.697 Y-38.285
X4.318 Y-38.221
X4.937 Y-38.146
X5.556 Y-38.061
X6.172 Y-37.966
X6.787 Y-37.861
X7.4 Y-37.745
X8.011 Y-37.62
X8.621 Y-37.484
X9.227 Y-37.339
X9.832 Y-37.184
X10.434 Y-37.02
X11.033 Y-36.845
X11.629 Y-36.662
X12.222 Y-36.469
X12.813 Y-36.266
X13.399 Y-36.054
X13.983 Y-35.832
X14.562 Y-35.601
X15.138 Y-35.361
X15.71 Y-35.112
X16.278 Y-34.853
X16.841 Y-34.585
X17.4 Y-34.307
X17.954 Y-34.021
X18.504 Y-33.725
X19.048 Y-33.42
X19.588 Y-33.107
X20.122 Y-32.785
X20.652 Y-32.455
X21.176 Y-32.116
X21.694 Y-31.769
X22.207 Y-31.414
X22.715 Y-31.051
X23.217 Y-30.68
X23.712 Y-30.302
X24.202 Y-29.915
X24.686 Y-29.521
X25.163 Y-29.119
X25.634 Y-28.709
X26.098 Y-28.293
X26.556 Y-27.868
X27.007 Y-27.437
X27.45 Y-26.998
X27.887 Y-26.553
X28.316 Y-26.1
X28.738 Y-25.641
X29.154 Y-25.175
X29.561 Y-24.702
X29.962 Y-24.224
X30.355 Y-23.739
X30.74 Y-23.248
X31.118 Y-22.752
X31.488 Y-22.25
X31.85 Y-21.742
X32.205 Y-21.228
X32.551 Y-20.709
X32.89 Y-20.185
X33.22 Y-19.656
X33.542 Y-19.121
X33.856 Y-18.582
X34.161 Y-18.038
X34.457 Y-17.489
X34.744 Y-16.935
X35.023 Y-16.377
X35.293 Y-15.814
X35.554 Y-15.247
X35.806 Y-14.676
X36.049 Y-14.102
X36.283 Y-13.523
X36.508 Y-12.941
X36.724 Y-12.356
X36.931 Y-11.767
X37.129 Y-11.176
X37.317 Y-10.581
X37.497 Y-9.983
X37.667 Y-9.383
X37.828 Y-8.78
X37.979 Y-8.175
X38.12 Y-7.567
X38.252 Y-6.957
X38.374 Y-6.345
X38.487 Y-5.732
X38.589 Y-5.116
X38.681 Y-4.499
X38.763 Y-3.88
X38.836 Y-3.261
X38.899 Y-2.64
X38.951 Y-2.018
X38.994 Y-1.396
X39.028 Y-0.773
X39.051 Y-0.149
X39.065 Y0.475
X39.069 Y1.098
X39.063 Y1.722
X39.048 Y2.346
X39.022 Y2.97
X38.987 Y3.593
X38.942 Y4.215
X38.886 Y4.836
X38.821 Y5.457
X38.746 Y6.076
X38.661 Y6.694
X38.566 Y7.311
X38.46 Y7.926
X38.345 Y8.539
X38.22 Y9.15
X38.085 Y9.76
X37.94 Y10.367
X37.786 Y10.971
X37.623 Y11.573
X37.45 Y12.173
X37.267 Y12.77
X37.076 Y13.363
X36.874 Y13.954
X36.664 Y14.541
X36.444 Y15.125
X36.215 Y15.706
X35.977 Y16.282
X35.73 Y16.855
X35.473 Y17.424
X35.207 Y17.988
X34.932 Y18.548
X34.648 Y19.104
X34.355 Y19.655
X34.053 Y20.201
X33.742 Y20.742
X33.423 Y21.278
X33.095 Y21.809
X32.759 Y22.335
X32.415 Y22.855
X32.063 Y23.37
X31.702 Y23.879
X31.334 Y24.383
X30.958 Y24.881
X30.574 Y25.372
X30.182 Y25.858
X29.782 Y26.337
X29.375 Y26.81
X28.961 Y27.276
X28.539 Y27.736
X28.109 Y28.189
X27.673 Y28.634
X27.229 Y29.073
X26.778 Y29.504
X26.32 Y29.928
X25.856 Y30.345
X25.385 Y30.754
X24.907 Y31.156
X24.424 Y31.55
X23.934 Y31.936
X23.438 Y32.315
X22.936 Y32.686
X22.429 Y33.049
X21.916 Y33.405
X21.397 Y33.752
X20.874 Y34.09
X20.344 Y34.421
X19.81 Y34.743
X19.27 Y35.057
X18.726 Y35.361
X18.177 Y35.658
X17.623 Y35.945
X17.064 Y36.223
X16.501 Y36.492
X15.934 Y36.752
X15.363 Y37.003
X14.788 Y37.245
X14.209 Y37.478
X13.627 Y37.702
X13.041 Y37.917
X12.452 Y38.122
X11.86 Y38.319
X11.265 Y38.506
X10.666 Y38.684
X10.066 Y38.853
X9.462 Y39.012
X8.857 Y39.161
X8.249 Y39.302
X8.17 Y39.318
X8.149 Y39.322
X8.128 Y39.324
X8.107 Y39.325
X-7.443
X-8.066 Y39.294
X-8.688 Y39.244
X-9.305 Y39.152
X-9.918 Y39.032
X-10.526 Y38.891
X-11.13 Y38.735
X-11.73 Y38.565
X-12.327 Y38.385
X-12.922 Y38.194
X-13.512 Y37.994
X-14.1 Y37.784
X-14.684 Y37.564
X-15.265 Y37.336
X-15.842 Y37.098
X-16.415 Y36.852
X-16.984 Y36.596
X-17.549 Y36.332
X-18.11 Y36.059
X-18.667 Y35.776
X-19.218 Y35.485
X-19.766 Y35.186
X-20.308 Y34.878
X-20.846 Y34.562
X-21.379 Y34.237
X-21.907 Y33.904
X-22.43 Y33.563
X-22.947 Y33.215
X-23.459 Y32.858
X-23.965 Y32.493
X-24.466 Y32.12
X-24.96 Y31.74
X-25.449 Y31.352
X-25.932 Y30.957
X-26.408 Y30.554
X-26.879 Y30.144
X-27.342 Y29.727
X-27.8 Y29.302
X-28.25 Y28.871
X-28.694 Y28.432
X-29.13 Y27.986
X-29.56 Y27.534
X-29.982 Y27.075
X-30.398 Y26.609
X-30.806 Y26.137
X-31.207 Y25.659
X-31.6 Y25.175
X-31.986 Y24.685
X-32.365 Y24.188
X-32.735 Y23.686
X-33.098 Y23.179
X-33.453 Y22.666
X-33.8 Y22.147
X-34.139 Y21.623
X-34.47 Y21.094
X-34.793 Y20.56
X-35.107 Y20.021
X-35.413 Y19.478
X-35.71 Y18.929
X-35.999 Y18.376
X-36.279 Y17.818
X-36.55 Y17.256
X-36.812 Y16.69
X-37.066 Y16.12
X-37.311 Y15.546
X-37.547 Y14.969
X-37.774 Y14.387
X-37.992 Y13.803
X-38.202 Y13.215
X-38.402 Y12.624
X-38.593 Y12.03
X-38.774 Y11.433
X-38.947 Y10.834
X-39.11 Y10.231
X-39.265 Y9.627
X-39.317 Y9.407
X-39.321 Y9.385
X-39.324 Y9.361
X-39.325 Y9.338
Y-8.152
X-39.294 Y-8.775
X-39.228 Y-9.396
X-39.121 Y-10.01
X-38.986 Y-10.62
X-38.831 Y-11.224
X-38.661 Y-11.824
X-38.479 Y-12.421
X-38.285 Y-13.014
X-38.082 Y-13.604
X-37.868 Y-14.19
X-37.646 Y-14.773
X-37.414 Y-15.353
X-37.173 Y-15.928
X-36.924 Y-16.5
X-36.665 Y-17.068
X-36.398 Y-17.632
X-36.122 Y-18.191
X-35.837 Y-18.746
X-35.543 Y-19.297
X-35.241 Y-19.843
X-34.931 Y-20.384
X-34.612 Y-20.92
X-34.285 Y-21.452
X-33.95 Y-21.978
X-33.606 Y-22.499
X-33.255 Y-23.015
X-32.896 Y-23.525
X-32.529 Y-24.03
X-32.155 Y-24.529
X-31.773 Y-25.022
X-31.384 Y-25.51
X-30.987 Y-25.991
X-30.583 Y-26.467
X-30.171 Y-26.936
X-29.752 Y-27.398
X-29.326 Y-27.854
X-28.893 Y-28.303
X-28.453 Y-28.746
X-28.006 Y-29.181
X-27.553 Y-29.609
X-27.093 Y-30.031
X-26.626 Y-30.445
X-26.153 Y-30.852
X-25.674 Y-31.252
X-25.188 Y-31.644
X-24.697 Y-32.028
X-24.2 Y-32.406
X-23.697 Y-32.775
X-23.189 Y-33.137
X-22.675 Y-33.491
X-22.156 Y-33.837
X-21.632 Y-34.175
X-21.102 Y-34.505
X-20.568 Y-34.827
X-20.028 Y-35.141
X-19.484 Y-35.446
X-18.935 Y-35.742
X-18.382 Y-36.03
X-17.824 Y-36.309
X-17.261 Y-36.58
X-16.695 Y-36.841
X-16.124 Y-37.094
X-15.55 Y-37.338
X-14.972 Y-37.573
X-14.391 Y-37.8
X-13.806 Y-38.017
X-13.218 Y-38.225
X-12.626 Y-38.424
X-12.032 Y-38.615
X-11.435 Y-38.796
X-10.835 Y-38.968
X-10.233 Y-39.131
X-9.628 Y-39.284
X-9.492 Y-39.317
X-9.469 Y-39.321
X-9.446 Y-39.324
X-9.422 Y-39.325
X8.152
X8.775 Y-39.294
X9.396 Y-39.232
X10.011 Y-39.126
X10.62 Y-38.992
X11.225 Y-38.838
X11.825 Y-38.668
X12.422 Y-38.486
X13.015 Y-38.292
X13.605 Y-38.089
X14.192 Y-37.876
X14.775 Y-37.653
X15.354 Y-37.422
X15.93 Y-37.181
X16.502 Y-36.932
X17.07 Y-36.674
X17.633 Y-36.407
X18.193 Y-36.131
X18.748 Y-35.846
X19.299 Y-35.553
X19.845 Y-35.251
X20.386 Y-34.941
X20.923 Y-34.622
X21.455 Y-34.296
X21.981 Y-33.961
X22.503 Y-33.618
X23.019 Y-33.268
X23.53 Y-32.91
X24.036 Y-32.545
X24.536 Y-32.172
X25.031 Y-31.791
X25.519 Y-31.403
X26.002 Y-31.008
X26.479 Y-30.606
X26.95 Y-30.196
X27.414 Y-29.78
X27.872 Y-29.356
X28.324 Y-28.925
X28.769 Y-28.488
X29.207 Y-28.044
X29.639 Y-27.593
X30.063 Y-27.136
X30.481 Y-26.672
X30.891 Y-26.203
X31.295 Y-25.727
X31.692 Y-25.245
X32.081 Y-24.758
X32.463 Y-24.265
X32.838 Y-23.766
X33.206 Y-23.262
X33.566 Y-22.752
X33.919 Y-22.238
X34.264 Y-21.718
X34.602 Y-21.193
X34.931 Y-20.663
X35.253 Y-20.129
X35.567 Y-19.589
X35.872 Y-19.045
X36.17 Y-18.497
X36.459 Y-17.944
X36.74 Y-17.387
X37.012 Y-16.825
X37.275 Y-16.26
X37.53 Y-15.69
X37.777 Y-15.117
X38.015 Y-14.54
X38.244 Y-13.96
X38.465 Y-13.376
X38.677 Y-12.79
X38.881 Y-12.2
X39.076 Y-11.607
X39.262 Y-11.012
X39.313 Y-10.841
X39.32 Y-10.813
X39.324 Y-10.784
X39.325 Y-10.755
Y11.413
X39.294 Y12.036
X39.226 Y12.656
X39.105 Y13.268
X38.949 Y13.873
X38.769 Y14.47
X38.572 Y15.062
X38.361 Y15.649
X38.138 Y16.232
X37.906 Y16.811
X37.663 Y17.386
X37.411 Y17.957
X37.15 Y18.523
X36.881 Y19.086
X36.602 Y19.644
X36.315 Y20.198
X36.02 Y20.748
X35.716 Y21.293
X35.403 Y21.833
X35.083 Y22.369
X34.755 Y22.899
X34.419 Y23.425
X34.075 Y23.945
X33.723 Y24.461
X33.363 Y24.971
X32.996 Y25.475
X32.622 Y25.974
X32.24 Y26.467
X31.85 Y26.955
X31.453 Y27.436
X31.049 Y27.911
X30.638 Y28.381
X30.219 Y28.843
X29.793 Y29.3
X29.361 Y29.749
X28.922 Y30.192
X28.475 Y30.629
X28.023 Y31.058
X27.563 Y31.48
X27.098 Y31.896
X26.626 Y32.304
X26.148 Y32.705
X25.665 Y33.099
X25.175 Y33.486
X24.68 Y33.866
X24.179 Y34.238
X23.673 Y34.603
X23.161 Y34.96
X22.644 Y35.309
X22.121 Y35.65
X21.594 Y35.983
X21.062 Y36.309
X20.524 Y36.626
X19.982 Y36.935
X19.436 Y37.236
X18.884 Y37.528
X18.329 Y37.812
X17.769 Y38.087
X17.205 Y38.354
X16.637 Y38.612
X16.065 Y38.862
X15.489 Y39.103
X14.99 Y39.303
X14.954 Y39.315
X14.916 Y39.323
X14.878 Y39.325
X8.107
G0 Z5.
X38.95 Y10.402
Z-2.4
G1 Z-2.7 F1206
X38.954 Y10.408 Z-2.767
X38.966 Y10.427 Z-2.83
X38.984 Y10.458 Z-2.887
X39.008 Y10.499 Z-2.935
X39.037 Y10.548 Z-2.97
X39.07 Y10.602 Z-2.992
X39.104 Y10.659 Z-3.
G3 X39.325 Y11.413 I-1.36 J0.809
G1 Y17.084
X39.294 Y17.707
X39.193 Y18.323
X39.022 Y18.923
X38.806 Y19.508
X38.56 Y20.082
X38.295 Y20.647
X38.015 Y21.204
X37.723 Y21.756
X37.422 Y22.302
X37.111 Y22.843
X36.792 Y23.379
X36.465 Y23.91
X36.13 Y24.437
X35.787 Y24.958
X35.437 Y25.475
X35.079 Y25.986
X34.715 Y26.492
X34.342 Y26.993
X33.963 Y27.488
X33.576 Y27.978
X33.183 Y28.462
X32.782 Y28.941
X32.375 Y29.413
X31.961 Y29.88
X31.54 Y30.34
X31.112 Y30.795
X30.678 Y31.243
X30.237 Y31.684
X29.79 Y32.119
X29.336 Y32.548
X28.877 Y32.97
X28.411 Y33.386
X27.94 Y33.794
X27.462 Y34.196
X26.98 Y34.591
X26.491 Y34.979
X25.997 Y35.361
X25.498 Y35.735
X24.993 Y36.101
X24.483 Y36.461
X23.968 Y36.813
X23.448 Y37.157
X22.923 Y37.495
X22.393 Y37.824
X21.858 Y38.146
X21.319 Y38.46
X20.775 Y38.766
X20.227 Y39.064
X19.797 Y39.291
X19.752 Y39.31
X19.705 Y39.321
X19.657 Y39.325
X14.878
G0 Z5.
X38.95 Y16.073
Z-2.4
G1 Z-2.7 F1206
X38.954 Y16.079 Z-2.767
X38.966 Y16.098 Z-2.83
X38.984 Y16.129 Z-2.887
X39.008 Y16.17 Z-2.935
X39.037 Y16.219 Z-2.97
X39.07 Y16.273 Z-2.992
X39.104 Y16.33 Z-3.
G3 X39.325 Y17.084 I-1.36 J0.809
G1 Y21.479
X39.294 Y22.092
X39.174 Y22.704
X38.971 Y23.294
X38.716 Y23.863
X38.428 Y24.417
X38.119 Y24.959
X37.794 Y25.492
X37.458 Y26.018
X37.112 Y26.537
X36.757 Y27.05
X36.395 Y27.558
X36.025 Y28.06
X35.648 Y28.558
X35.264 Y29.049
X34.873 Y29.535
X34.475 Y30.016
X34.07 Y30.491
X33.659 Y30.961
X33.242 Y31.424
X32.818 Y31.882
X32.388 Y32.334
X31.951 Y32.78
X31.509 Y33.22
X31.06 Y33.653
X30.605 Y34.081
X30.145 Y34.502
X29.679 Y34.916
X29.207 Y35.325
X28.729 Y35.726
X28.247 Y36.122
X27.759 Y36.51
X27.265 Y36.892
X26.767 Y37.268
X26.263 Y37.636
X25.754 Y37.997
X25.241 Y38.351
X24.722 Y38.698
X24.199 Y39.038
X23.816 Y39.279
X23.766 Y39.304
X23.712 Y39.32
X23.656 Y39.325
X19.657
G0 Z5.
X38.95 Y20.468
Z-2.4
G1 Z-2.7 F1206
X38.954 Y20.474 Z-2.767
X38.966 Y20.493 Z-2.83
X38.984 Y20.524 Z-2.887
X39.008 Y20.565 Z-2.935
X39.037 Y20.614 Z-2.97
X39.07 Y20.668 Z-2.992
X39.104 Y20.725 Z-3.
G3 X39.325 Y21.479 I-1.36 J0.809
G1 Y25.307
X39.3 Y25.814
X39.192 Y26.359
X38.985 Y26.948
X38.714 Y27.51
X38.402 Y28.051
X38.065 Y28.576
X37.71 Y29.089
X37.343 Y29.593
X36.965 Y30.09
X36.579 Y30.58
X36.185 Y31.064
X35.785 Y31.542
X35.378 Y32.015
X34.964 Y32.482
X34.544 Y32.944
X34.118 Y33.399
X33.686 Y33.849
X33.248 Y34.294
X32.804 Y34.732
X32.354 Y35.165
X31.898 Y35.591
X31.437 Y36.012
X30.971 Y36.426
X30.499 Y36.834
X30.022 Y37.236
X29.54 Y37.632
X29.052 Y38.022
X28.56 Y38.405
X28.062 Y38.781
X27.56 Y39.151
X27.395 Y39.269
X27.341 Y39.3
X27.282 Y39.319
X27.221 Y39.325
X23.656
G0 Z5.
X38.95 Y24.296
Z-2.4
G1 Z-2.7 F1206
X38.954 Y24.302 Z-2.767
X38.966 Y24.321 Z-2.83
X38.984 Y24.352 Z-2.887
X39.008 Y24.393 Z-2.935
X39.037 Y24.442 Z-2.97
X39.07 Y24.496 Z-2.992
X39.104 Y24.553 Z-3.
G3 X39.325 Y25.307 I-1.36 J0.809
G1 Y28.71
X39.3 Y29.211
X39.205 Y29.693
X38.998 Y30.281
X38.715 Y30.837
X38.385 Y31.367
X38.025 Y31.877
X37.647 Y32.373
X37.254 Y32.858
X36.852 Y33.335
X36.441 Y33.804
X36.023 Y34.267
X35.598 Y34.725
X35.167 Y35.176
X34.731 Y35.621
X34.288 Y36.061
X33.84 Y36.495
X33.386 Y36.923
X32.927 Y37.346
X32.462 Y37.762
X31.992 Y38.173
X31.517 Y38.577
X31.037 Y38.976
X30.689 Y39.258
X30.632 Y39.295
X30.568 Y39.317
X30.5 Y39.325
X27.221
G0 Z5.
X38.95 Y27.698
Z-2.4
G1 Z-2.7 F1206
X38.954 Y27.705 Z-2.767
X38.966 Y27.724 Z-2.83
X38.984 Y27.754 Z-2.887
X39.008 Y27.795 Z-2.935
X39.037 Y27.844 Z-2.97
X39.07 Y27.899 Z-2.992
X39.104 Y27.956 Z-3.
G3 X39.325 Y28.71 I-1.36 J0.809
G1 Y31.97
X39.306 Y32.36
X39.218 Y32.805
X39.017 Y33.374
X38.728 Y33.927
X38.385 Y34.448
X38.009 Y34.946
X37.611 Y35.427
X37.2 Y35.896
X36.777 Y36.355
X36.346 Y36.806
X35.908 Y37.25
X35.464 Y37.689
X35.014 Y38.121
X34.558 Y38.547
X34.097 Y38.967
X33.78 Y39.249
X33.72 Y39.29
X33.653 Y39.316
X33.581 Y39.325
X30.5
G3 X30.211 Y39.015 I0.01 J-0.3
X30.32 Y38.794 I0.3 J0.01
G1 X30.366 Y38.755
X38.744 Y31.825
X38.834 Y31.75
G3 X39.256 Y31.79 I0.191 J0.231
X39.325 Y31.97 I-0.231 J0.191
G1 Y34.948
X39.305 Y35.351
X39.223 Y35.768
X39.041 Y36.285
X38.751 Y36.838
X38.4 Y37.354
X38.011 Y37.842
X37.6 Y38.31
X37.172 Y38.765
X36.733 Y39.208
X36.7 Y39.24
X36.639 Y39.286
X36.567 Y39.315
X36.491 Y39.325
G3 X36.202 Y39.015 I0.01 J-0.3
X36.247 Y38.867 I0.3 J0.01
G1 X36.33 Y38.733
X38.76 Y34.817
X38.77 Y34.8
G3 X39.183 Y34.703 I0.255 J0.158
X39.325 Y34.948 I-0.158 J0.255
G1 Y37.783
X39.304 Y38.209
X39.226 Y38.603
X39.057 Y39.083
X39.014 Y39.164
X38.948 Y39.25
X38.855 Y39.306
X38.749 Y39.325
G3 X38.459 Y39.015 I0.01 J-0.3
X38.466 Y38.962 I0.3 J0.01
G1 X38.521 Y38.707
X38.732 Y37.73
G3 X39.089 Y37.5 I0.293 J0.063
X39.325 Y37.783 I-0.063 J0.293
G1 Y38.917
X39.321 Y39.059
X39.314 Y39.095
X39.301 Y39.13
X39.283 Y39.166
X39.258 Y39.201
X39.23 Y39.232
X39.201 Y39.258
X39.166 Y39.283
X39.13 Y39.301
X39.095 Y39.314
X39.059 Y39.321
X38.917 Y39.325
X33.581
G0 Z5.
X7.141 Y-38.95
Z-2.4
G1 Z-2.7 F1206
X7.147 Y-38.954 Z-2.767
X7.166 Y-38.966 Z-2.83
X7.197 Y-38.984 Z-2.887
X7.238 Y-39.008 Z-2.935
X7.287 Y-39.037 Z-2.97
X7.341 Y-39.07 Z-2.992
X7.399 Y-39.104 Z-3.
G3 X8.152 Y-39.325 I0.809 J1.36
G1 X14.532
X15.155 Y-39.294
X15.772 Y-39.197
X16.374 Y-39.035
X16.964 Y-38.833
X17.545 Y-38.603
X18.117 Y-38.355
X18.683 Y-38.092
X19.243 Y-37.818
X19.799 Y-37.533
X20.349 Y-37.239
X20.895 Y-36.937
X21.436 Y-36.626
X21.972 Y-36.308
X22.504 Y-35.981
X23.031 Y-35.647
X23.553 Y-35.305
X24.07 Y-34.956
X24.582 Y-34.6
X25.089 Y-34.236
X25.591 Y-33.865
X26.087 Y-33.486
X26.578 Y-33.101
X27.063 Y-32.709
X27.542 Y-32.309
X28.016 Y-31.903
X28.483 Y-31.49
X28.945 Y-31.07
X29.401 Y-30.644
X29.85 Y-30.211
X30.293 Y-29.772
X30.73 Y-29.326
X31.16 Y-28.874
X31.583 Y-28.416
X32. Y-27.952
X32.411 Y-27.482
X32.814 Y-27.006
X33.211 Y-26.525
X33.602 Y-26.038
X33.985 Y-25.545
X34.361 Y-25.048
X34.731 Y-24.545
X35.093 Y-24.037
X35.448 Y-23.524
X35.795 Y-23.006
X36.136 Y-22.483
X36.469 Y-21.955
X36.794 Y-21.423
X37.112 Y-20.886
X37.422 Y-20.344
X37.724 Y-19.798
X38.019 Y-19.248
X38.305 Y-18.694
X38.584 Y-18.136
X38.854 Y-17.574
X39.117 Y-17.007
X39.299 Y-16.599
X39.313 Y-16.559
X39.322 Y-16.518
X39.325 Y-16.477
Y-10.755
G0 Z5.
X13.521 Y-38.95
Z-2.4
G1 Z-2.7 F1206
X13.527 Y-38.954 Z-2.767
X13.546 Y-38.966 Z-2.83
X13.577 Y-38.984 Z-2.887
X13.618 Y-39.008 Z-2.935
X13.667 Y-39.037 Z-2.97
X13.721 Y-39.07 Z-2.992
X13.778 Y-39.104 Z-3.
G3 X14.532 Y-39.325 I0.809 J1.36
G1 X19.211
X19.823 Y-39.294
X20.435 Y-39.174
X21.026 Y-38.976
X21.6 Y-38.73
X22.159 Y-38.452
X22.707 Y-38.154
X23.246 Y-37.841
X23.779 Y-37.517
X24.306 Y-37.182
X24.828 Y-36.84
X25.344 Y-36.489
X25.855 Y-36.131
X26.361 Y-35.766
X26.862 Y-35.394
X27.357 Y-35.015
X27.847 Y-34.629
X28.332 Y-34.236
X28.812 Y-33.837
X29.286 Y-33.431
X29.754 Y-33.019
X30.217 Y-32.6
X30.674 Y-32.175
X31.124 Y-31.744
X31.569 Y-31.306
X32.008 Y-30.863
X32.44 Y-30.413
X32.866 Y-29.957
X33.286 Y-29.495
X33.7 Y-29.028
X34.107 Y-28.555
X34.508 Y-28.077
X34.902 Y-27.594
X35.29 Y-27.105
X35.671 Y-26.611
X36.046 Y-26.112
X36.413 Y-25.608
X36.774 Y-25.099
X37.128 Y-24.585
X37.476 Y-24.067
X37.816 Y-23.544
X38.149 Y-23.016
X38.474 Y-22.484
X38.793 Y-21.947
X39.104 Y-21.407
X39.287 Y-21.079
X39.308 Y-21.033
X39.321 Y-20.983
X39.325 Y-20.933
Y-16.477
G0 Z5.
X18.199 Y-38.95
Z-2.4
G1 Z-2.7 F1206
X18.206 Y-38.954 Z-2.767
X18.225 Y-38.966 Z-2.83
X18.255 Y-38.984 Z-2.887
X18.296 Y-39.008 Z-2.935
X18.345 Y-39.037 Z-2.97
X18.4 Y-39.07 Z-2.992
X18.457 Y-39.104 Z-3.
G3 X19.211 Y-39.325 I0.809 J1.36
G1 X23.18
X23.681 Y-39.3
X24.251 Y-39.188
X24.839 Y-38.981
X25.403 Y-38.713
X25.948 Y-38.408
X26.478 Y-38.079
X26.997 Y-37.734
X27.508 Y-37.375
X28.012 Y-37.008
X28.51 Y-36.632
X29.002 Y-36.248
X29.489 Y-35.857
X29.97 Y-35.46
X30.445 Y-35.056
X30.915 Y-34.646
X31.38 Y-34.23
X31.839 Y-33.807
X32.292 Y-33.378
X32.74 Y-32.944
X33.182 Y-32.503
X33.618 Y-32.057
X34.048 Y-31.604
X34.472 Y-31.147
X34.89 Y-30.683
X35.301 Y-30.215
X35.707 Y-29.741
X36.107 Y-29.262
X36.5 Y-28.777
X36.888 Y-28.288
X37.268 Y-27.794
X37.643 Y-27.295
X38.011 Y-26.791
X38.372 Y-26.282
X38.727 Y-25.769
X39.075 Y-25.251
X39.276 Y-24.945
X39.303 Y-24.893
X39.319 Y-24.838
X39.325 Y-24.78
Y-20.933
G0 Z5.
X22.169 Y-38.95
Z-2.4
G1 Z-2.7 F1206
X22.175 Y-38.954 Z-2.767
X22.194 Y-38.966 Z-2.83
X22.225 Y-38.984 Z-2.887
X22.266 Y-39.008 Z-2.935
X22.315 Y-39.037 Z-2.97
X22.369 Y-39.07 Z-2.992
X22.427 Y-39.104 Z-3.
G3 X23.18 Y-39.325 I0.809 J1.36
G1 X26.725
X27.167 Y-39.303
X27.669 Y-39.204
X28.258 Y-38.997
X28.816 Y-38.717
X29.349 Y-38.393
X29.864 Y-38.041
X30.366 Y-37.67
X30.858 Y-37.286
X31.342 Y-36.892
X31.818 Y-36.49
X32.289 Y-36.081
X32.754 Y-35.665
X33.213 Y-35.242
X33.667 Y-34.814
X34.115 Y-34.379
X34.557 Y-33.939
X34.994 Y-33.493
X35.425 Y-33.042
X35.85 Y-32.586
X36.269 Y-32.124
X36.683 Y-31.656
X37.09 Y-31.184
X37.492 Y-30.707
X37.888 Y-30.224
X38.278 Y-29.737
X38.661 Y-29.245
X39.039 Y-28.748
X39.266 Y-28.442
X39.298 Y-28.387
X39.318 Y-28.327
X39.325 Y-28.263
Y-24.78
G0 Z5.
X25.713 Y-38.95
Z-2.4
G1 Z-2.7 F1206
X25.72 Y-38.954 Z-2.767
X25.739 Y-38.966 Z-2.83
X25.77 Y-38.984 Z-2.887
X25.81 Y-39.008 Z-2.935
X25.859 Y-39.037 Z-2.97
X25.914 Y-39.07 Z-2.992
X25.971 Y-39.104 Z-3.
G3 X26.725 Y-39.325 I0.809 J1.36
G1 X29.986
X30.398 Y-39.304
X30.854 Y-39.215
X31.442 Y-39.007
X31.995 Y-38.718
X32.519 Y-38.379
X33.021 Y-38.008
X33.507 Y-37.617
X33.981 Y-37.212
X34.447 Y-36.797
X34.905 Y-36.373
X35.356 Y-35.942
X35.801 Y-35.505
X36.241 Y-35.062
X36.674 Y-34.613
X37.102 Y-34.159
X37.525 Y-33.7
X37.942 Y-33.235
X38.353 Y-32.766
X38.758 Y-32.292
X39.158 Y-31.813
X39.258 Y-31.69
X39.294 Y-31.632
X39.317 Y-31.568
X39.325 Y-31.5
Y-28.263
G3 X39.015 Y-27.974 I-0.3 J-0.01
X38.797 Y-28.079 I0.01 J-0.3
G1 X38.755 Y-28.129
X29.257 Y-39.255
X29.228 Y-39.278
X29.192 Y-39.289
X29.154 Y-39.286
X29.12 Y-39.269
X29.095 Y-39.241
X29.082 Y-39.206
X29.083 Y-39.168
X29.098 Y-39.134
X29.125 Y-39.107
X29.159 Y-39.092
X29.197 Y-39.091
X29.232 Y-39.104
G3 X29.986 Y-39.325 I0.809 J1.36
G1 X33.105
X33.439 Y-39.308
X33.866 Y-39.224
X34.403 Y-39.035
X34.956 Y-38.745
X35.474 Y-38.397
X35.966 Y-38.013
X36.439 Y-37.607
X36.899 Y-37.185
X37.348 Y-36.752
X37.789 Y-36.311
X38.224 Y-35.863
X38.652 Y-35.409
X39.074 Y-34.95
X39.248 Y-34.755
X39.29 Y-34.695
X39.316 Y-34.627
X39.325 Y-34.555
Y-31.5
G3 X39.015 Y-31.211 I-0.3 J-0.01
X38.789 Y-31.325 I0.01 J-0.3
G1 X38.756 Y-31.367
X32.956 Y-38.742
X32.879 Y-38.84
G3 X32.93 Y-39.261 I0.236 J-0.185
X33.105 Y-39.325 I0.185 J0.236
G1 X35.94
X36.348 Y-39.305
X36.752 Y-39.225
X37.244 Y-39.052
X37.797 Y-38.762
X38.31 Y-38.407
X38.793 Y-38.012
X39.227 Y-37.619
X39.28 Y-37.555
X39.314 Y-37.479
X39.325 Y-37.397
G3 X39.015 Y-37.108 I-0.3 J-0.01
X38.886 Y-37.142 I0.01 J-0.3
G1 X38.727 Y-37.225
X35.811 Y-38.76
G3 X35.685 Y-39.165 I0.14 J-0.265
X35.94 Y-39.325 I0.265 J0.14
G1 X38.917
X39.059 Y-39.321
X39.095 Y-39.314
X39.13 Y-39.301
X39.166 Y-39.283
X39.201 Y-39.258
